;AiBuild;---Postprocessor V1 by Ai Build---
;Post date/time: 2024/04/18 23:32
;Total object height: 365.28mm
;Total estimated volume: 13999045.00mm^3
;Total print time: 133min
;---------enter overall compensations below----------
N10 DEF REAL Z_RAFT=0
N12 DEF REAL X_COMP=0,Y_COMP=0,Z_COMP=10
N14 DEF REAL _camtolerance
;----------------------------------------------------
PRESETON(EM,1)
N16 PRESETON(E,0)
N18 EXTRUSIONMULTIPLIER
N20 _camtolerance=0.6
N24 TRAORI
N26 G645 SOFT COMPCAD FIFOCTRL UPATH
N28 G55
N30 TRANS X=X_COMP Y=Y_COMP Z=Z_COMP+Z_RAFT ELX=Y_COMP
;----------------------------------------------------
;-----------------------LAYER 0----------------------
;OUTER_WALL
OVR=100 ;Engaging
;Travel
N44 G0 X1272.400 Y1975.400 Z36.000 A0.000 B0.000 C0.000 F3000.000 
;Engage
N46 X1272.400 Y1975.400 Z6.000 A0.000 B0.000 C0.000  
N48 X1272.547 Y1975.400 Z5.073 A0.000 B0.000 C0.000 
N50 X1272.973 Y1975.400 Z4.237 A0.000 B0.000 C0.000 
N52 X1273.637 Y1975.400 Z3.573 A0.000 B0.000 C0.000 
N54 X1274.473 Y1975.400 Z3.147 A0.000 B0.000 C0.000 
N56 X1275.400 Y1975.400 Z3.000 A0.000 B0.000 C0.000 
N58 X1275.400 Y1975.400 A0.000 B0.000 C0.000 
;G4 F0.5
OVR=100
N62 G1 X1285.240 Y1975.400 A0.000 B0.000 C0.000 F1794.322 E=IC(0.621) 
N64 X1295.080 Y1975.400 A0.000 B0.000 C0.000 E=IC(0.621) 
N66 X1304.920 Y1975.400 A0.000 B0.000 C0.000 E=IC(0.621) 
N68 X1314.760 Y1975.400 A0.000 B0.000 C0.000 E=IC(0.621) 
N70 X1324.600 Y1975.400 A0.000 B0.000 C0.000 E=IC(0.621) 
N72 X1324.600 Y1985.240 A0.000 B0.000 C0.000 E=IC(0.621) 
N74 X1324.600 Y1995.080 A0.000 B0.000 C0.000 E=IC(0.621) 
N76 X1324.600 Y2004.920 A0.000 B0.000 C0.000 E=IC(0.621) 
N78 X1324.600 Y2014.760 A0.000 B0.000 C0.000 E=IC(0.621) 
N80 X1324.600 Y2024.600 A0.000 B0.000 C0.000 E=IC(0.621) 
N82 X1314.760 Y2024.600 A0.000 B0.000 C0.000 E=IC(0.621) 
N84 X1304.920 Y2024.600 A0.000 B0.000 C0.000 E=IC(0.621) 
N86 X1295.080 Y2024.600 A0.000 B0.000 C0.000 E=IC(0.621) 
N88 X1285.240 Y2024.600 A0.000 B0.000 C0.000 E=IC(0.621) 
N90 X1275.400 Y2024.600 A0.000 B0.000 C0.000 E=IC(0.621) 
N92 X1275.400 Y2014.760 A0.000 B0.000 C0.000 E=IC(0.621) 
N94 X1275.400 Y2004.920 A0.000 B0.000 C0.000 E=IC(0.621) 
N96 X1275.400 Y1995.080 A0.000 B0.000 C0.000 E=IC(0.621) 
N98 X1275.400 Y1985.240 A0.000 B0.000 C0.000 E=IC(0.621) 
N100 X1275.400 Y1980.400 A0.000 B0.000 C0.000 E=IC(0.305) 
OVR=100 ;Disengaging
N102 G0 X1275.400 Y1975.400 A0.000 B0.000 C0.000 
N104 X1285.240 Y1975.400 A0.000 B0.000 C0.000 
N106 X1295.080 Y1975.400 A0.000 B0.000 C0.000 
N108 X1295.400 Y1975.400 A0.000 B0.000 C0.000 
;Disengage
N110 X1295.400 Y1975.400 A0.000 B0.000 C0.000 
N112 X1295.799 Y1975.400 Z3.003 A0.000 B0.000 C0.000 
N114 X1296.199 Y1975.400 Z3.011 A0.000 B0.000 C0.000 
N116 X1296.598 Y1975.400 Z3.024 A0.000 B0.000 C0.000 
N118 X1296.997 Y1975.400 Z3.043 A0.000 B0.000 C0.000 
N120 X1297.395 Y1975.400 Z3.066 A0.000 B0.000 C0.000 
N122 X1297.794 Y1975.400 Z3.096 A0.000 B0.000 C0.000 
N124 X1298.191 Y1975.400 Z3.130 A0.000 B0.000 C0.000 
N126 X1298.589 Y1975.400 Z3.170 A0.000 B0.000 C0.000 
N128 X1298.986 Y1975.400 Z3.215 A0.000 B0.000 C0.000 
N130 X1299.382 Y1975.400 Z3.265 A0.000 B0.000 C0.000 
N132 X1299.777 Y1975.400 Z3.321 A0.000 B0.000 C0.000 
N134 X1300.172 Y1975.400 Z3.382 A0.000 B0.000 C0.000 
N136 X1300.566 Y1975.400 Z3.448 A0.000 B0.000 C0.000 
N138 X1300.959 Y1975.400 Z3.519 A0.000 B0.000 C0.000 
N140 X1301.351 Y1975.400 Z3.596 A0.000 B0.000 C0.000 
N142 X1301.741 Y1975.400 Z3.678 A0.000 B0.000 C0.000 
N144 X1302.131 Y1975.400 Z3.765 A0.000 B0.000 C0.000 
N146 X1302.520 Y1975.400 Z3.857 A0.000 B0.000 C0.000 
N148 X1302.907 Y1975.400 Z3.954 A0.000 B0.000 C0.000 
N150 X1303.293 Y1975.400 Z4.057 A0.000 B0.000 C0.000 
N152 X1303.678 Y1975.400 Z4.165 A0.000 B0.000 C0.000 
N154 X1304.061 Y1975.400 Z4.277 A0.000 B0.000 C0.000 
N156 X1304.442 Y1975.400 Z4.395 A0.000 B0.000 C0.000 
N158 X1304.822 Y1975.400 Z4.518 A0.000 B0.000 C0.000 
N160 X1305.201 Y1975.400 Z4.646 A0.000 B0.000 C0.000 
N162 X1305.577 Y1975.400 Z4.779 A0.000 B0.000 C0.000 
N164 X1305.952 Y1975.400 Z4.917 A0.000 B0.000 C0.000 
N166 X1306.325 Y1975.400 Z5.060 A0.000 B0.000 C0.000 
N168 X1306.696 Y1975.400 Z5.208 A0.000 B0.000 C0.000 
N170 X1307.065 Y1975.400 Z5.361 A0.000 B0.000 C0.000 
N172 X1307.432 Y1975.400 Z5.518 A0.000 B0.000 C0.000 
N174 X1307.796 Y1975.400 Z5.681 A0.000 B0.000 C0.000 
N176 X1308.159 Y1975.400 Z5.848 A0.000 B0.000 C0.000 
N178 X1308.519 Y1975.400 Z6.021 A0.000 B0.000 C0.000 
N180 X1308.877 Y1975.400 Z6.198 A0.000 B0.000 C0.000 
N182 X1309.233 Y1975.400 Z6.379 A0.000 B0.000 C0.000 
N184 X1309.586 Y1975.400 Z6.566 A0.000 B0.000 C0.000 
N186 X1309.937 Y1975.400 Z6.757 A0.000 B0.000 C0.000 
N188 X1310.285 Y1975.400 Z6.953 A0.000 B0.000 C0.000 
N190 X1310.630 Y1975.400 Z7.153 A0.000 B0.000 C0.000 
N192 X1310.973 Y1975.400 Z7.358 A0.000 B0.000 C0.000 
N194 X1311.313 Y1975.400 Z7.568 A0.000 B0.000 C0.000 
N196 X1311.650 Y1975.400 Z7.782 A0.000 B0.000 C0.000 
N198 X1311.984 Y1975.400 Z8.001 A0.000 B0.000 C0.000 
N200 X1312.315 Y1975.400 Z8.224 A0.000 B0.000 C0.000 
N202 X1312.644 Y1975.400 Z8.451 A0.000 B0.000 C0.000 
N204 X1312.969 Y1975.400 Z8.683 A0.000 B0.000 C0.000 
N206 X1313.291 Y1975.400 Z8.919 A0.000 B0.000 C0.000 
N208 X1313.610 Y1975.400 Z9.159 A0.000 B0.000 C0.000 
N210 X1313.926 Y1975.400 Z9.403 A0.000 B0.000 C0.000 
N212 X1314.238 Y1975.400 Z9.652 A0.000 B0.000 C0.000 
N214 X1314.547 Y1975.400 Z9.905 A0.000 B0.000 C0.000 
N216 X1314.853 Y1975.400 Z10.162 A0.000 B0.000 C0.000 
N218 X1315.155 Y1975.400 Z10.423 A0.000 B0.000 C0.000 
N220 X1315.454 Y1975.400 Z10.688 A0.000 B0.000 C0.000 
N222 X1315.749 Y1975.400 Z10.957 A0.000 B0.000 C0.000 
N224 X1316.041 Y1975.400 Z11.230 A0.000 B0.000 C0.000 
N226 X1316.329 Y1975.400 Z11.506 A0.000 B0.000 C0.000 
N228 X1316.613 Y1975.400 Z11.787 A0.000 B0.000 C0.000 
N230 X1337.826 Y1975.400 Z33.000 A0.000 B0.000 C0.000 
OVR=100 ;Engaging
;Travel
N232 X1259.700 Y1962.700 Z36.000 A0.000 B0.000 C0.000 F2037.228 
;Engage
N234 X1259.700 Y1962.700 Z6.000 A0.000 B0.000 C0.000 F1794.322
N236 X1259.847 Y1962.700 Z5.073 A0.000 B0.000 C0.000 
N238 X1260.273 Y1962.700 Z4.237 A0.000 B0.000 C0.000 
N240 X1260.937 Y1962.700 Z3.573 A0.000 B0.000 C0.000 
N242 X1261.773 Y1962.700 Z3.147 A0.000 B0.000 C0.000 
N244 X1262.700 Y1962.700 Z3.000 A0.000 B0.000 C0.000 
N246 X1262.700 Y1962.700 A0.000 B0.000 C0.000 
;G4 F0.5
OVR=100
N250 G1 X1272.025 Y1962.700 A0.000 B0.000 C0.000 E=IC(0.588) 
N252 X1281.350 Y1962.700 A0.000 B0.000 C0.000 E=IC(0.588) 
N254 X1290.675 Y1962.700 A0.000 B0.000 C0.000 E=IC(0.588) 
N256 X1300.000 Y1962.700 A0.000 B0.000 C0.000 E=IC(0.588) 
N258 X1309.325 Y1962.700 A0.000 B0.000 C0.000 E=IC(0.588) 
N260 X1318.650 Y1962.700 A0.000 B0.000 C0.000 E=IC(0.588) 
N262 X1327.975 Y1962.700 A0.000 B0.000 C0.000 E=IC(0.588) 
N264 X1337.300 Y1962.700 A0.000 B0.000 C0.000 E=IC(0.588) 
N266 X1337.300 Y1972.025 A0.000 B0.000 C0.000 E=IC(0.588) 
N268 X1337.300 Y1981.350 A0.000 B0.000 C0.000 E=IC(0.588) 
N270 X1337.300 Y1990.675 A0.000 B0.000 C0.000 E=IC(0.588) 
N272 X1337.300 Y2000.000 A0.000 B0.000 C0.000 E=IC(0.588) 
N274 X1337.300 Y2009.325 A0.000 B0.000 C0.000 E=IC(0.588) 
N276 X1337.300 Y2018.650 A0.000 B0.000 C0.000 E=IC(0.588) 
N278 X1337.300 Y2027.975 A0.000 B0.000 C0.000 E=IC(0.588) 
N280 X1337.300 Y2037.300 A0.000 B0.000 C0.000 E=IC(0.588) 
N282 X1327.975 Y2037.300 A0.000 B0.000 C0.000 E=IC(0.588) 
N284 X1318.650 Y2037.300 A0.000 B0.000 C0.000 E=IC(0.588) 
N286 X1309.325 Y2037.300 A0.000 B0.000 C0.000 E=IC(0.588) 
N288 X1300.000 Y2037.300 A0.000 B0.000 C0.000 E=IC(0.588) 
N290 X1290.675 Y2037.300 A0.000 B0.000 C0.000 E=IC(0.588) 
N292 X1281.350 Y2037.300 A0.000 B0.000 C0.000 E=IC(0.588) 
N294 X1272.025 Y2037.300 A0.000 B0.000 C0.000 E=IC(0.588) 
N296 X1262.700 Y2037.300 A0.000 B0.000 C0.000 E=IC(0.588) 
N298 X1262.700 Y2027.975 A0.000 B0.000 C0.000 E=IC(0.588) 
N300 X1262.700 Y2018.650 A0.000 B0.000 C0.000 E=IC(0.588) 
N302 X1262.700 Y2009.325 A0.000 B0.000 C0.000 E=IC(0.588) 
N304 X1262.700 Y2000.000 A0.000 B0.000 C0.000 E=IC(0.588) 
N306 X1262.700 Y1990.675 A0.000 B0.000 C0.000 E=IC(0.588) 
N308 X1262.700 Y1981.350 A0.000 B0.000 C0.000 E=IC(0.588) 
N310 X1262.700 Y1972.025 A0.000 B0.000 C0.000 E=IC(0.588) 
N312 X1262.700 Y1967.700 A0.000 B0.000 C0.000 E=IC(0.273) 
OVR=100 ;Disengaging
N314 G0 X1262.700 Y1962.700 A0.000 B0.000 C0.000 
N316 X1272.025 Y1962.700 A0.000 B0.000 C0.000 
N318 X1281.350 Y1962.700 A0.000 B0.000 C0.000 
N320 X1282.700 Y1962.700 A0.000 B0.000 C0.000 
;Disengage
N322 X1282.700 Y1962.700 A0.000 B0.000 C0.000 
N324 X1283.099 Y1962.700 Z3.003 A0.000 B0.000 C0.000 
N326 X1283.499 Y1962.700 Z3.011 A0.000 B0.000 C0.000 
N328 X1283.898 Y1962.700 Z3.024 A0.000 B0.000 C0.000 
N330 X1284.297 Y1962.700 Z3.043 A0.000 B0.000 C0.000 
N332 X1284.695 Y1962.700 Z3.066 A0.000 B0.000 C0.000 
N334 X1285.094 Y1962.700 Z3.096 A0.000 B0.000 C0.000 
N336 X1285.491 Y1962.700 Z3.130 A0.000 B0.000 C0.000 
N338 X1285.889 Y1962.700 Z3.170 A0.000 B0.000 C0.000 
N340 X1286.286 Y1962.700 Z3.215 A0.000 B0.000 C0.000 
N342 X1286.682 Y1962.700 Z3.265 A0.000 B0.000 C0.000 
N344 X1287.077 Y1962.700 Z3.321 A0.000 B0.000 C0.000 
N346 X1287.472 Y1962.700 Z3.382 A0.000 B0.000 C0.000 
N348 X1287.866 Y1962.700 Z3.448 A0.000 B0.000 C0.000 
N350 X1288.259 Y1962.700 Z3.519 A0.000 B0.000 C0.000 
N352 X1288.651 Y1962.700 Z3.596 A0.000 B0.000 C0.000 
N354 X1289.041 Y1962.700 Z3.678 A0.000 B0.000 C0.000 
N356 X1289.431 Y1962.700 Z3.765 A0.000 B0.000 C0.000 
N358 X1289.820 Y1962.700 Z3.857 A0.000 B0.000 C0.000 
N360 X1290.207 Y1962.700 Z3.954 A0.000 B0.000 C0.000 
N362 X1290.593 Y1962.700 Z4.057 A0.000 B0.000 C0.000 
N364 X1290.978 Y1962.700 Z4.165 A0.000 B0.000 C0.000 
N366 X1291.361 Y1962.700 Z4.277 A0.000 B0.000 C0.000 
N368 X1291.742 Y1962.700 Z4.395 A0.000 B0.000 C0.000 
N370 X1292.122 Y1962.700 Z4.518 A0.000 B0.000 C0.000 
N372 X1292.501 Y1962.700 Z4.646 A0.000 B0.000 C0.000 
N374 X1292.877 Y1962.700 Z4.779 A0.000 B0.000 C0.000 
N376 X1293.252 Y1962.700 Z4.917 A0.000 B0.000 C0.000 
N378 X1293.625 Y1962.700 Z5.060 A0.000 B0.000 C0.000 
N380 X1293.996 Y1962.700 Z5.208 A0.000 B0.000 C0.000 
N382 X1294.365 Y1962.700 Z5.361 A0.000 B0.000 C0.000 
N384 X1294.732 Y1962.700 Z5.518 A0.000 B0.000 C0.000 
N386 X1295.096 Y1962.700 Z5.681 A0.000 B0.000 C0.000 
N388 X1295.459 Y1962.700 Z5.848 A0.000 B0.000 C0.000 
N390 X1295.819 Y1962.700 Z6.021 A0.000 B0.000 C0.000 
N392 X1296.177 Y1962.700 Z6.198 A0.000 B0.000 C0.000 
N394 X1296.533 Y1962.700 Z6.379 A0.000 B0.000 C0.000 
N396 X1296.886 Y1962.700 Z6.566 A0.000 B0.000 C0.000 
N398 X1297.236 Y1962.700 Z6.757 A0.000 B0.000 C0.000 
N400 X1297.584 Y1962.700 Z6.953 A0.000 B0.000 C0.000 
N402 X1297.930 Y1962.700 Z7.153 A0.000 B0.000 C0.000 
N404 X1298.273 Y1962.700 Z7.358 A0.000 B0.000 C0.000 
N406 X1298.613 Y1962.700 Z7.568 A0.000 B0.000 C0.000 
N408 X1298.950 Y1962.700 Z7.782 A0.000 B0.000 C0.000 
N410 X1299.284 Y1962.700 Z8.001 A0.000 B0.000 C0.000 
N412 X1299.615 Y1962.700 Z8.224 A0.000 B0.000 C0.000 
N414 X1299.944 Y1962.700 Z8.451 A0.000 B0.000 C0.000 
N416 X1300.269 Y1962.700 Z8.683 A0.000 B0.000 C0.000 
N418 X1300.591 Y1962.700 Z8.919 A0.000 B0.000 C0.000 
N420 X1300.910 Y1962.700 Z9.159 A0.000 B0.000 C0.000 
N422 X1301.226 Y1962.700 Z9.403 A0.000 B0.000 C0.000 
N424 X1301.538 Y1962.700 Z9.652 A0.000 B0.000 C0.000 
N426 X1301.847 Y1962.700 Z9.905 A0.000 B0.000 C0.000 
N428 X1302.153 Y1962.700 Z10.162 A0.000 B0.000 C0.000 
N430 X1302.455 Y1962.700 Z10.423 A0.000 B0.000 C0.000 
N432 X1302.754 Y1962.700 Z10.688 A0.000 B0.000 C0.000 
N434 X1303.049 Y1962.700 Z10.957 A0.000 B0.000 C0.000 
N436 X1303.341 Y1962.700 Z11.230 A0.000 B0.000 C0.000 
N438 X1303.629 Y1962.700 Z11.506 A0.000 B0.000 C0.000 
N440 X1303.913 Y1962.700 Z11.787 A0.000 B0.000 C0.000 
N442 X1325.126 Y1962.700 Z33.000 A0.000 B0.000 C0.000 
OVR=100 ;Engaging
;Travel
N444 X1247.000 Y1950.000 Z36.000 A0.000 B0.000 C0.000 F2037.228 
;Engage
N446 X1247.000 Y1950.000 Z6.000 A0.000 B0.000 C0.000 F1794.322
N448 X1247.147 Y1950.000 Z5.073 A0.000 B0.000 C0.000 
N450 X1247.573 Y1950.000 Z4.237 A0.000 B0.000 C0.000 
N452 X1248.237 Y1950.000 Z3.573 A0.000 B0.000 C0.000 
N454 X1249.073 Y1950.000 Z3.147 A0.000 B0.000 C0.000 
N456 X1250.000 Y1950.000 Z3.000 A0.000 B0.000 C0.000 
N458 X1250.000 Y1950.000 A0.000 B0.000 C0.000 
;G4 F0.5
OVR=100
N462 G1 X1260.000 Y1950.000 A0.000 B0.000 C0.000 E=IC(0.631) 
N464 X1270.000 Y1950.000 A0.000 B0.000 C0.000 E=IC(0.631) 
N466 X1280.000 Y1950.000 A0.000 B0.000 C0.000 E=IC(0.631) 
N468 X1290.000 Y1950.000 A0.000 B0.000 C0.000 E=IC(0.631) 
N470 X1300.000 Y1950.000 A0.000 B0.000 C0.000 E=IC(0.631) 
N472 X1310.000 Y1950.000 A0.000 B0.000 C0.000 E=IC(0.631) 
N474 X1320.000 Y1950.000 A0.000 B0.000 C0.000 E=IC(0.631) 
N476 X1330.000 Y1950.000 A0.000 B0.000 C0.000 E=IC(0.631) 
N478 X1340.000 Y1950.000 A0.000 B0.000 C0.000 E=IC(0.631) 
N480 X1350.000 Y1950.000 A0.000 B0.000 C0.000 E=IC(0.631) 
N482 X1350.000 Y1960.000 A0.000 B0.000 C0.000 E=IC(0.631) 
N484 X1350.000 Y1970.000 A0.000 B0.000 C0.000 E=IC(0.631) 
N486 X1350.000 Y1980.000 A0.000 B0.000 C0.000 E=IC(0.631) 
N488 X1350.000 Y1990.000 A0.000 B0.000 C0.000 E=IC(0.631) 
N490 X1350.000 Y2000.000 A0.000 B0.000 C0.000 E=IC(0.631) 
N492 X1350.000 Y2010.000 A0.000 B0.000 C0.000 E=IC(0.631) 
N494 X1350.000 Y2020.000 A0.000 B0.000 C0.000 E=IC(0.631) 
N496 X1350.000 Y2030.000 A0.000 B0.000 C0.000 E=IC(0.631) 
N498 X1350.000 Y2040.000 A0.000 B0.000 C0.000 E=IC(0.631) 
N500 X1350.000 Y2050.000 A0.000 B0.000 C0.000 E=IC(0.631) 
N502 X1340.000 Y2050.000 A0.000 B0.000 C0.000 E=IC(0.631) 
N504 X1330.000 Y2050.000 A0.000 B0.000 C0.000 E=IC(0.631) 
N506 X1320.000 Y2050.000 A0.000 B0.000 C0.000 E=IC(0.631) 
N508 X1310.000 Y2050.000 A0.000 B0.000 C0.000 E=IC(0.631) 
N510 X1300.000 Y2050.000 A0.000 B0.000 C0.000 E=IC(0.631) 
N512 X1290.000 Y2050.000 A0.000 B0.000 C0.000 E=IC(0.631) 
N514 X1280.000 Y2050.000 A0.000 B0.000 C0.000 E=IC(0.631) 
N516 X1270.000 Y2050.000 A0.000 B0.000 C0.000 E=IC(0.631) 
N518 X1260.000 Y2050.000 A0.000 B0.000 C0.000 E=IC(0.631) 
N520 X1250.000 Y2050.000 A0.000 B0.000 C0.000 E=IC(0.631) 
N522 X1250.000 Y2040.000 A0.000 B0.000 C0.000 E=IC(0.631) 
N524 X1250.000 Y2030.000 A0.000 B0.000 C0.000 E=IC(0.631) 
N526 X1250.000 Y2020.000 A0.000 B0.000 C0.000 E=IC(0.631) 
N528 X1250.000 Y2010.000 A0.000 B0.000 C0.000 E=IC(0.631) 
N530 X1250.000 Y2000.000 A0.000 B0.000 C0.000 E=IC(0.631) 
N532 X1250.000 Y1990.000 A0.000 B0.000 C0.000 E=IC(0.631) 
N534 X1250.000 Y1980.000 A0.000 B0.000 C0.000 E=IC(0.631) 
N536 X1250.000 Y1970.000 A0.000 B0.000 C0.000 E=IC(0.631) 
N538 X1250.000 Y1960.000 A0.000 B0.000 C0.000 E=IC(0.631) 
N540 X1250.000 Y1955.000 A0.000 B0.000 C0.000 E=IC(0.315) 
OVR=100 ;Disengaging
N542 G0 X1250.000 Y1950.000 A0.000 B0.000 C0.000 
N544 X1260.000 Y1950.000 A0.000 B0.000 C0.000 
N546 X1270.000 Y1950.000 A0.000 B0.000 C0.000 
;Disengage
N548 X1270.000 Y1950.000 A0.000 B0.000 C0.000 
N550 X1270.399 Y1950.000 Z3.003 A0.000 B0.000 C0.000 
N552 X1270.799 Y1950.000 Z3.011 A0.000 B0.000 C0.000 
N554 X1271.198 Y1950.000 Z3.024 A0.000 B0.000 C0.000 
N556 X1271.597 Y1950.000 Z3.043 A0.000 B0.000 C0.000 
N558 X1271.995 Y1950.000 Z3.066 A0.000 B0.000 C0.000 
N560 X1272.394 Y1950.000 Z3.096 A0.000 B0.000 C0.000 
N562 X1272.791 Y1950.000 Z3.130 A0.000 B0.000 C0.000 
N564 X1273.189 Y1950.000 Z3.170 A0.000 B0.000 C0.000 
N566 X1273.586 Y1950.000 Z3.215 A0.000 B0.000 C0.000 
N568 X1273.982 Y1950.000 Z3.265 A0.000 B0.000 C0.000 
N570 X1274.377 Y1950.000 Z3.321 A0.000 B0.000 C0.000 
N572 X1274.772 Y1950.000 Z3.382 A0.000 B0.000 C0.000 
N574 X1275.166 Y1950.000 Z3.448 A0.000 B0.000 C0.000 
N576 X1275.559 Y1950.000 Z3.519 A0.000 B0.000 C0.000 
N578 X1275.951 Y1950.000 Z3.596 A0.000 B0.000 C0.000 
N580 X1276.341 Y1950.000 Z3.678 A0.000 B0.000 C0.000 
N582 X1276.731 Y1950.000 Z3.765 A0.000 B0.000 C0.000 
N584 X1277.120 Y1950.000 Z3.857 A0.000 B0.000 C0.000 
N586 X1277.507 Y1950.000 Z3.954 A0.000 B0.000 C0.000 
N588 X1277.893 Y1950.000 Z4.057 A0.000 B0.000 C0.000 
N590 X1278.278 Y1950.000 Z4.165 A0.000 B0.000 C0.000 
N592 X1278.661 Y1950.000 Z4.277 A0.000 B0.000 C0.000 
N594 X1279.042 Y1950.000 Z4.395 A0.000 B0.000 C0.000 
N596 X1279.422 Y1950.000 Z4.518 A0.000 B0.000 C0.000 
N598 X1279.801 Y1950.000 Z4.646 A0.000 B0.000 C0.000 
N600 X1280.177 Y1950.000 Z4.779 A0.000 B0.000 C0.000 
N602 X1280.552 Y1950.000 Z4.917 A0.000 B0.000 C0.000 
N604 X1280.925 Y1950.000 Z5.060 A0.000 B0.000 C0.000 
N606 X1281.296 Y1950.000 Z5.208 A0.000 B0.000 C0.000 
N608 X1281.665 Y1950.000 Z5.361 A0.000 B0.000 C0.000 
N610 X1282.032 Y1950.000 Z5.518 A0.000 B0.000 C0.000 
N612 X1282.396 Y1950.000 Z5.681 A0.000 B0.000 C0.000 
N614 X1282.759 Y1950.000 Z5.848 A0.000 B0.000 C0.000 
N616 X1283.119 Y1950.000 Z6.021 A0.000 B0.000 C0.000 
N618 X1283.477 Y1950.000 Z6.198 A0.000 B0.000 C0.000 
N620 X1283.833 Y1950.000 Z6.379 A0.000 B0.000 C0.000 
N622 X1284.186 Y1950.000 Z6.566 A0.000 B0.000 C0.000 
N624 X1284.536 Y1950.000 Z6.757 A0.000 B0.000 C0.000 
N626 X1284.885 Y1950.000 Z6.953 A0.000 B0.000 C0.000 
N628 X1285.230 Y1950.000 Z7.153 A0.000 B0.000 C0.000 
N630 X1285.573 Y1950.000 Z7.358 A0.000 B0.000 C0.000 
N632 X1285.913 Y1950.000 Z7.568 A0.000 B0.000 C0.000 
N634 X1286.250 Y1950.000 Z7.782 A0.000 B0.000 C0.000 
N636 X1286.584 Y1950.000 Z8.001 A0.000 B0.000 C0.000 
N638 X1286.915 Y1950.000 Z8.224 A0.000 B0.000 C0.000 
N640 X1287.244 Y1950.000 Z8.451 A0.000 B0.000 C0.000 
N642 X1287.569 Y1950.000 Z8.683 A0.000 B0.000 C0.000 
N644 X1287.891 Y1950.000 Z8.919 A0.000 B0.000 C0.000 
N646 X1288.210 Y1950.000 Z9.159 A0.000 B0.000 C0.000 
N648 X1288.526 Y1950.000 Z9.403 A0.000 B0.000 C0.000 
N650 X1288.838 Y1950.000 Z9.652 A0.000 B0.000 C0.000 
N652 X1289.147 Y1950.000 Z9.905 A0.000 B0.000 C0.000 
N654 X1289.453 Y1950.000 Z10.162 A0.000 B0.000 C0.000 
N656 X1289.755 Y1950.000 Z10.423 A0.000 B0.000 C0.000 
N658 X1290.054 Y1950.000 Z10.688 A0.000 B0.000 C0.000 
N660 X1290.349 Y1950.000 Z10.957 A0.000 B0.000 C0.000 
N662 X1290.641 Y1950.000 Z11.230 A0.000 B0.000 C0.000 
N664 X1290.929 Y1950.000 Z11.506 A0.000 B0.000 C0.000 
N666 X1291.213 Y1950.000 Z11.787 A0.000 B0.000 C0.000 
N668 X1312.426 Y1950.000 Z33.000 A0.000 B0.000 C0.000 
OVR=100 ;Engaging
;Travel
N670 X1859.625 Y2635.000 Z38.080 A0.000 B0.000 C0.000 F2037.228 
;Engage
N672 X1859.625 Y2635.000 Z8.080 A0.000 B0.000 C0.000 F1794.322
N674 X1859.478 Y2635.000 Z7.153 A0.000 B0.000 C0.000 
N676 X1859.052 Y2635.000 Z6.317 A0.000 B0.000 C0.000 
N678 X1858.388 Y2635.000 Z5.653 A0.000 B0.000 C0.000 
N680 X1857.552 Y2635.000 Z5.227 A0.000 B0.000 C0.000 
N682 X1856.625 Y2635.000 Z5.080 A0.000 B0.000 C0.000 
N684 X1856.625 Y2635.000 A0.000 B0.000 C0.000 
;G4 F0.5
OVR=100
N688 G1 X743.376 Y2635.000 A0.000 B0.000 C0.000 E=IC(70.235) 
N690 X743.376 Y1365.000 A0.000 B0.000 C0.000 E=IC(80.124) 
N692 X1856.625 Y1365.000 A0.000 B0.000 C0.000 E=IC(70.235) 
N694 X1856.625 Y2630.000 A0.000 B0.000 C0.000 E=IC(79.809) 
OVR=100 ;Disengaging
N696 G0 X1856.625 Y2635.000 A0.000 B0.000 C0.000 
N698 X1836.625 Y2635.000 A0.000 B0.000 C0.000 
;Disengage
N700 X1836.625 Y2635.000 A0.000 B0.000 C0.000 
N702 X1836.226 Y2635.000 Z5.083 A0.000 B0.000 C0.000 
N704 X1835.826 Y2635.000 Z5.091 A0.000 B0.000 C0.000 
N706 X1835.427 Y2635.000 Z5.104 A0.000 B0.000 C0.000 
N708 X1835.028 Y2635.000 Z5.123 A0.000 B0.000 C0.000 
N710 X1834.630 Y2635.000 Z5.146 A0.000 B0.000 C0.000 
N712 X1834.231 Y2635.000 Z5.176 A0.000 B0.000 C0.000 
N714 X1833.833 Y2635.000 Z5.210 A0.000 B0.000 C0.000 
N716 X1833.436 Y2635.000 Z5.250 A0.000 B0.000 C0.000 
N718 X1833.039 Y2635.000 Z5.295 A0.000 B0.000 C0.000 
N720 X1832.643 Y2635.000 Z5.345 A0.000 B0.000 C0.000 
N722 X1832.248 Y2635.000 Z5.401 A0.000 B0.000 C0.000 
N724 X1831.853 Y2635.000 Z5.462 A0.000 B0.000 C0.000 
N726 X1831.459 Y2635.000 Z5.528 A0.000 B0.000 C0.000 
N728 X1831.066 Y2635.000 Z5.599 A0.000 B0.000 C0.000 
N730 X1830.674 Y2635.000 Z5.676 A0.000 B0.000 C0.000 
N732 X1830.283 Y2635.000 Z5.758 A0.000 B0.000 C0.000 
N734 X1829.894 Y2635.000 Z5.845 A0.000 B0.000 C0.000 
N736 X1829.505 Y2635.000 Z5.937 A0.000 B0.000 C0.000 
N738 X1829.118 Y2635.000 Z6.034 A0.000 B0.000 C0.000 
N740 X1828.732 Y2635.000 Z6.137 A0.000 B0.000 C0.000 
N742 X1828.347 Y2635.000 Z6.245 A0.000 B0.000 C0.000 
N744 X1827.964 Y2635.000 Z6.357 A0.000 B0.000 C0.000 
N746 X1827.583 Y2635.000 Z6.475 A0.000 B0.000 C0.000 
N748 X1827.203 Y2635.000 Z6.598 A0.000 B0.000 C0.000 
N750 X1826.824 Y2635.000 Z6.726 A0.000 B0.000 C0.000 
N752 X1826.448 Y2635.000 Z6.859 A0.000 B0.000 C0.000 
N754 X1826.073 Y2635.000 Z6.997 A0.000 B0.000 C0.000 
N756 X1825.700 Y2635.000 Z7.140 A0.000 B0.000 C0.000 
N758 X1825.329 Y2635.000 Z7.288 A0.000 B0.000 C0.000 
N760 X1824.960 Y2635.000 Z7.441 A0.000 B0.000 C0.000 
N762 X1824.593 Y2635.000 Z7.598 A0.000 B0.000 C0.000 
N764 X1824.229 Y2635.000 Z7.761 A0.000 B0.000 C0.000 
N766 X1823.866 Y2635.000 Z7.928 A0.000 B0.000 C0.000 
N768 X1823.506 Y2635.000 Z8.101 A0.000 B0.000 C0.000 
N770 X1823.148 Y2635.000 Z8.278 A0.000 B0.000 C0.000 
N772 X1822.792 Y2635.000 Z8.459 A0.000 B0.000 C0.000 
N774 X1822.439 Y2635.000 Z8.646 A0.000 B0.000 C0.000 
N776 X1822.088 Y2635.000 Z8.837 A0.000 B0.000 C0.000 
N778 X1821.740 Y2635.000 Z9.033 A0.000 B0.000 C0.000 
N780 X1821.395 Y2635.000 Z9.233 A0.000 B0.000 C0.000 
N782 X1821.052 Y2635.000 Z9.438 A0.000 B0.000 C0.000 
N784 X1820.712 Y2635.000 Z9.648 A0.000 B0.000 C0.000 
N786 X1820.375 Y2635.000 Z9.862 A0.000 B0.000 C0.000 
N788 X1820.041 Y2635.000 Z10.081 A0.000 B0.000 C0.000 
N790 X1819.710 Y2635.000 Z10.304 A0.000 B0.000 C0.000 
N792 X1819.381 Y2635.000 Z10.531 A0.000 B0.000 C0.000 
N794 X1819.056 Y2635.000 Z10.763 A0.000 B0.000 C0.000 
N796 X1818.734 Y2635.000 Z10.999 A0.000 B0.000 C0.000 
N798 X1818.415 Y2635.000 Z11.239 A0.000 B0.000 C0.000 
N800 X1818.099 Y2635.000 Z11.483 A0.000 B0.000 C0.000 
N802 X1817.787 Y2635.000 Z11.732 A0.000 B0.000 C0.000 
N804 X1817.478 Y2635.000 Z11.985 A0.000 B0.000 C0.000 
N806 X1817.172 Y2635.000 Z12.242 A0.000 B0.000 C0.000 
N808 X1816.870 Y2635.000 Z12.503 A0.000 B0.000 C0.000 
N810 X1816.571 Y2635.000 Z12.768 A0.000 B0.000 C0.000 
N812 X1816.276 Y2635.000 Z13.037 A0.000 B0.000 C0.000 
N814 X1815.984 Y2635.000 Z13.310 A0.000 B0.000 C0.000 
N816 X1815.696 Y2635.000 Z13.586 A0.000 B0.000 C0.000 
N818 X1815.412 Y2635.000 Z13.867 A0.000 B0.000 C0.000 
N820 X1794.198 Y2635.000 Z35.080 A0.000 B0.000 C0.000 
OVR=100 ;Engaging
;Travel
N822 X1806.625 Y1997.000 Z38.081 A0.000 B0.000 C0.000 F2037.228 
;Engage
N824 X1806.625 Y1997.000 Z8.081 A0.000 B0.000 C0.000 F1794.322
N826 X1806.625 Y1997.147 Z7.154 A0.000 B0.000 C0.000 
N828 X1806.625 Y1997.573 Z6.318 A0.000 B0.000 C0.000 
N830 X1806.625 Y1998.237 Z5.654 A0.000 B0.000 C0.000 
N832 X1806.625 Y1999.073 Z5.228 A0.000 B0.000 C0.000 
N834 X1806.625 Y2000.000 Z5.081 A0.000 B0.000 C0.000 
N836 X1806.625 Y2000.000 A0.000 B0.000 C0.000 
;G4 F0.5
OVR=100
N840 G1 X1806.625 Y2004.958 A0.000 B0.000 C0.000 E=IC(0.313) 
N842 X1806.625 Y2014.873 A0.000 B0.000 C0.000 E=IC(0.626) 
N844 X1806.625 Y2024.788 A0.000 B0.000 C0.000 E=IC(0.626) 
N846 X1806.625 Y2034.703 A0.000 B0.000 C0.000 E=IC(0.626) 
N848 X1806.625 Y2044.619 A0.000 B0.000 C0.000 E=IC(0.626) 
N850 X1806.625 Y2054.534 A0.000 B0.000 C0.000 E=IC(0.626) 
N852 X1806.625 Y2064.449 A0.000 B0.000 C0.000 E=IC(0.626) 
N854 X1806.625 Y2074.365 A0.000 B0.000 C0.000 E=IC(0.626) 
N856 X1806.625 Y2084.280 A0.000 B0.000 C0.000 E=IC(0.626) 
N858 X1806.625 Y2094.195 A0.000 B0.000 C0.000 E=IC(0.626) 
N860 X1806.625 Y2104.110 A0.000 B0.000 C0.000 E=IC(0.626) 
N862 X1806.625 Y2114.026 A0.000 B0.000 C0.000 E=IC(0.626) 
N864 X1806.625 Y2123.941 A0.000 B0.000 C0.000 E=IC(0.626) 
N866 X1806.625 Y2133.856 A0.000 B0.000 C0.000 E=IC(0.626) 
N868 X1806.625 Y2143.771 A0.000 B0.000 C0.000 E=IC(0.626) 
N870 X1806.625 Y2153.687 A0.000 B0.000 C0.000 E=IC(0.626) 
N872 X1806.625 Y2163.602 A0.000 B0.000 C0.000 E=IC(0.626) 
N874 X1806.625 Y2173.517 A0.000 B0.000 C0.000 E=IC(0.626) 
N876 X1806.625 Y2183.432 A0.000 B0.000 C0.000 E=IC(0.626) 
N878 X1806.625 Y2193.348 A0.000 B0.000 C0.000 E=IC(0.626) 
N880 X1806.625 Y2203.263 A0.000 B0.000 C0.000 E=IC(0.626) 
N882 X1806.625 Y2213.178 A0.000 B0.000 C0.000 E=IC(0.626) 
N884 X1806.625 Y2223.093 A0.000 B0.000 C0.000 E=IC(0.626) 
N886 X1806.625 Y2233.009 A0.000 B0.000 C0.000 E=IC(0.626) 
N888 X1806.625 Y2242.924 A0.000 B0.000 C0.000 E=IC(0.626) 
N890 X1806.625 Y2252.839 A0.000 B0.000 C0.000 E=IC(0.626) 
N892 X1806.625 Y2262.754 A0.000 B0.000 C0.000 E=IC(0.626) 
N894 X1806.625 Y2272.670 A0.000 B0.000 C0.000 E=IC(0.626) 
N896 X1806.625 Y2282.585 A0.000 B0.000 C0.000 E=IC(0.626) 
N898 X1806.625 Y2292.500 A0.000 B0.000 C0.000 E=IC(0.626) 
N900 X1798.038 Y2297.458 A0.000 B0.000 C0.000 E=IC(0.626) 
N902 X1789.451 Y2302.415 A0.000 B0.000 C0.000 E=IC(0.626) 
N904 X1780.864 Y2307.373 A0.000 B0.000 C0.000 E=IC(0.626) 
N906 X1772.277 Y2312.331 A0.000 B0.000 C0.000 E=IC(0.626) 
N908 X1763.691 Y2317.288 A0.000 B0.000 C0.000 E=IC(0.626) 
N910 X1755.104 Y2322.246 A0.000 B0.000 C0.000 E=IC(0.626) 
N912 X1746.517 Y2327.203 A0.000 B0.000 C0.000 E=IC(0.626) 
N914 X1737.930 Y2332.161 A0.000 B0.000 C0.000 E=IC(0.626) 
N916 X1729.343 Y2337.119 A0.000 B0.000 C0.000 E=IC(0.626) 
N918 X1720.756 Y2342.076 A0.000 B0.000 C0.000 E=IC(0.626) 
N920 X1712.169 Y2347.034 A0.000 B0.000 C0.000 E=IC(0.626) 
N922 X1703.583 Y2351.992 A0.000 B0.000 C0.000 E=IC(0.626) 
N924 X1694.996 Y2356.949 A0.000 B0.000 C0.000 E=IC(0.626) 
N926 X1686.409 Y2361.907 A0.000 B0.000 C0.000 E=IC(0.626) 
N928 X1679.968 Y2365.625 A0.000 B0.000 C0.000 E=IC(0.469) 
N930 X1677.822 Y2366.865 A0.000 B0.000 C0.000 E=IC(0.156) 
N932 X1669.235 Y2371.822 A0.000 B0.000 C0.000 E=IC(0.626) 
N934 X1660.648 Y2376.780 A0.000 B0.000 C0.000 E=IC(0.626) 
N936 X1652.061 Y2381.737 A0.000 B0.000 C0.000 E=IC(0.626) 
N938 X1643.474 Y2386.695 A0.000 B0.000 C0.000 E=IC(0.626) 
N940 X1634.888 Y2391.653 A0.000 B0.000 C0.000 E=IC(0.626) 
N942 X1626.301 Y2396.610 A0.000 B0.000 C0.000 E=IC(0.626) 
N944 X1617.714 Y2401.568 A0.000 B0.000 C0.000 E=IC(0.626) 
N946 X1609.127 Y2406.525 A0.000 B0.000 C0.000 E=IC(0.626) 
N948 X1600.540 Y2411.483 A0.000 B0.000 C0.000 E=IC(0.626) 
N950 X1591.953 Y2416.441 A0.000 B0.000 C0.000 E=IC(0.626) 
N952 X1583.366 Y2421.398 A0.000 B0.000 C0.000 E=IC(0.626) 
N954 X1574.780 Y2426.356 A0.000 B0.000 C0.000 E=IC(0.626) 
N956 X1566.193 Y2431.314 A0.000 B0.000 C0.000 E=IC(0.626) 
N958 X1557.606 Y2436.271 A0.000 B0.000 C0.000 E=IC(0.626) 
N960 X1549.019 Y2441.229 A0.000 B0.000 C0.000 E=IC(0.626) 
N962 X1540.432 Y2446.187 A0.000 B0.000 C0.000 E=IC(0.626) 
N964 X1531.845 Y2451.144 A0.000 B0.000 C0.000 E=IC(0.626) 
N966 X1523.258 Y2456.102 A0.000 B0.000 C0.000 E=IC(0.626) 
N968 X1514.672 Y2461.059 A0.000 B0.000 C0.000 E=IC(0.626) 
N970 X1506.085 Y2466.017 A0.000 B0.000 C0.000 E=IC(0.626) 
N972 X1497.498 Y2470.975 A0.000 B0.000 C0.000 E=IC(0.626) 
N974 X1488.911 Y2475.932 A0.000 B0.000 C0.000 E=IC(0.626) 
N976 X1480.324 Y2480.890 A0.000 B0.000 C0.000 E=IC(0.626) 
N978 X1471.737 Y2485.847 A0.000 B0.000 C0.000 E=IC(0.626) 
N980 X1463.150 Y2490.805 A0.000 B0.000 C0.000 E=IC(0.626) 
N982 X1454.563 Y2495.763 A0.000 B0.000 C0.000 E=IC(0.626) 
N984 X1445.977 Y2500.720 A0.000 B0.000 C0.000 E=IC(0.626) 
N986 X1437.390 Y2505.678 A0.000 B0.000 C0.000 E=IC(0.626) 
N988 X1428.803 Y2510.636 A0.000 B0.000 C0.000 E=IC(0.626) 
N990 X1420.216 Y2515.593 A0.000 B0.000 C0.000 E=IC(0.626) 
N992 X1411.629 Y2520.551 A0.000 B0.000 C0.000 E=IC(0.626) 
N994 X1403.042 Y2525.509 A0.000 B0.000 C0.000 E=IC(0.626) 
N996 X1394.455 Y2530.466 A0.000 B0.000 C0.000 E=IC(0.626) 
N998 X1385.869 Y2535.424 A0.000 B0.000 C0.000 E=IC(0.626) 
N1000 X1377.282 Y2540.381 A0.000 B0.000 C0.000 E=IC(0.626) 
N1002 X1368.695 Y2545.339 A0.000 B0.000 C0.000 E=IC(0.626) 
N1004 X1360.108 Y2550.297 A0.000 B0.000 C0.000 E=IC(0.626) 
N1006 X1351.521 Y2555.254 A0.000 B0.000 C0.000 E=IC(0.626) 
N1008 X1342.934 Y2560.212 A0.000 B0.000 C0.000 E=IC(0.626) 
N1010 X1334.347 Y2565.169 A0.000 B0.000 C0.000 E=IC(0.626) 
N1012 X1325.760 Y2570.127 A0.000 B0.000 C0.000 E=IC(0.626) 
N1014 X1317.174 Y2575.085 A0.000 B0.000 C0.000 E=IC(0.626) 
N1016 X1308.587 Y2580.042 A0.000 B0.000 C0.000 E=IC(0.626) 
N1018 X1300.000 Y2585.000 A0.000 B0.000 C0.000 E=IC(0.626) 
N1020 X1291.413 Y2580.042 A0.000 B0.000 C0.000 E=IC(0.626) 
N1022 X1282.826 Y2575.085 A0.000 B0.000 C0.000 E=IC(0.626) 
N1024 X1274.239 Y2570.127 A0.000 B0.000 C0.000 E=IC(0.626) 
N1026 X1265.653 Y2565.169 A0.000 B0.000 C0.000 E=IC(0.626) 
N1028 X1257.066 Y2560.212 A0.000 B0.000 C0.000 E=IC(0.626) 
N1030 X1248.479 Y2555.254 A0.000 B0.000 C0.000 E=IC(0.626) 
N1032 X1239.892 Y2550.297 A0.000 B0.000 C0.000 E=IC(0.626) 
N1034 X1231.305 Y2545.339 A0.000 B0.000 C0.000 E=IC(0.626) 
N1036 X1222.718 Y2540.381 A0.000 B0.000 C0.000 E=IC(0.626) 
N1038 X1214.131 Y2535.424 A0.000 B0.000 C0.000 E=IC(0.626) 
N1040 X1205.544 Y2530.466 A0.000 B0.000 C0.000 E=IC(0.626) 
N1042 X1196.958 Y2525.509 A0.000 B0.000 C0.000 E=IC(0.626) 
N1044 X1188.371 Y2520.551 A0.000 B0.000 C0.000 E=IC(0.626) 
N1046 X1179.784 Y2515.593 A0.000 B0.000 C0.000 E=IC(0.626) 
N1048 X1171.197 Y2510.636 A0.000 B0.000 C0.000 E=IC(0.626) 
N1050 X1162.610 Y2505.678 A0.000 B0.000 C0.000 E=IC(0.626) 
N1052 X1154.023 Y2500.720 A0.000 B0.000 C0.000 E=IC(0.626) 
N1054 X1145.437 Y2495.763 A0.000 B0.000 C0.000 E=IC(0.626) 
N1056 X1136.850 Y2490.805 A0.000 B0.000 C0.000 E=IC(0.626) 
N1058 X1128.263 Y2485.847 A0.000 B0.000 C0.000 E=IC(0.626) 
N1060 X1119.676 Y2480.890 A0.000 B0.000 C0.000 E=IC(0.626) 
N1062 X1111.089 Y2475.932 A0.000 B0.000 C0.000 E=IC(0.626) 
N1064 X1102.502 Y2470.975 A0.000 B0.000 C0.000 E=IC(0.626) 
N1066 X1093.915 Y2466.017 A0.000 B0.000 C0.000 E=IC(0.626) 
N1068 X1085.328 Y2461.059 A0.000 B0.000 C0.000 E=IC(0.626) 
N1070 X1076.742 Y2456.102 A0.000 B0.000 C0.000 E=IC(0.626) 
N1072 X1068.155 Y2451.144 A0.000 B0.000 C0.000 E=IC(0.626) 
N1074 X1059.568 Y2446.186 A0.000 B0.000 C0.000 E=IC(0.626) 
N1076 X1050.981 Y2441.229 A0.000 B0.000 C0.000 E=IC(0.626) 
N1078 X1042.394 Y2436.271 A0.000 B0.000 C0.000 E=IC(0.626) 
N1080 X1033.807 Y2431.313 A0.000 B0.000 C0.000 E=IC(0.626) 
N1082 X1025.220 Y2426.356 A0.000 B0.000 C0.000 E=IC(0.626) 
N1084 X1016.634 Y2421.398 A0.000 B0.000 C0.000 E=IC(0.626) 
N1086 X1008.047 Y2416.441 A0.000 B0.000 C0.000 E=IC(0.626) 
N1088 X999.460 Y2411.483 A0.000 B0.000 C0.000 E=IC(0.626) 
N1090 X990.873 Y2406.525 A0.000 B0.000 C0.000 E=IC(0.626) 
N1092 X982.286 Y2401.568 A0.000 B0.000 C0.000 E=IC(0.626) 
N1094 X973.699 Y2396.610 A0.000 B0.000 C0.000 E=IC(0.626) 
N1096 X965.112 Y2391.653 A0.000 B0.000 C0.000 E=IC(0.626) 
N1098 X956.526 Y2386.695 A0.000 B0.000 C0.000 E=IC(0.626) 
N1100 X947.939 Y2381.737 A0.000 B0.000 C0.000 E=IC(0.626) 
N1102 X939.352 Y2376.780 A0.000 B0.000 C0.000 E=IC(0.626) 
N1104 X930.765 Y2371.822 A0.000 B0.000 C0.000 E=IC(0.626) 
N1106 X922.178 Y2366.864 A0.000 B0.000 C0.000 E=IC(0.626) 
N1108 X913.591 Y2361.907 A0.000 B0.000 C0.000 E=IC(0.626) 
N1110 X905.004 Y2356.949 A0.000 B0.000 C0.000 E=IC(0.626) 
N1112 X896.417 Y2351.991 A0.000 B0.000 C0.000 E=IC(0.626) 
N1114 X887.831 Y2347.034 A0.000 B0.000 C0.000 E=IC(0.626) 
N1116 X879.244 Y2342.076 A0.000 B0.000 C0.000 E=IC(0.626) 
N1118 X870.657 Y2337.119 A0.000 B0.000 C0.000 E=IC(0.626) 
N1120 X862.070 Y2332.161 A0.000 B0.000 C0.000 E=IC(0.626) 
N1122 X853.483 Y2327.203 A0.000 B0.000 C0.000 E=IC(0.626) 
N1124 X844.896 Y2322.246 A0.000 B0.000 C0.000 E=IC(0.626) 
N1126 X836.309 Y2317.288 A0.000 B0.000 C0.000 E=IC(0.626) 
N1128 X827.723 Y2312.330 A0.000 B0.000 C0.000 E=IC(0.626) 
N1130 X819.136 Y2307.373 A0.000 B0.000 C0.000 E=IC(0.626) 
N1132 X810.549 Y2302.415 A0.000 B0.000 C0.000 E=IC(0.626) 
N1134 X801.962 Y2297.458 A0.000 B0.000 C0.000 E=IC(0.626) 
N1136 X793.375 Y2292.500 A0.000 B0.000 C0.000 E=IC(0.626) 
N1138 X793.375 Y2282.585 A0.000 B0.000 C0.000 E=IC(0.626) 
N1140 X793.375 Y2272.669 A0.000 B0.000 C0.000 E=IC(0.626) 
N1142 X793.375 Y2262.754 A0.000 B0.000 C0.000 E=IC(0.626) 
N1144 X793.375 Y2252.839 A0.000 B0.000 C0.000 E=IC(0.626) 
N1146 X793.375 Y2242.924 A0.000 B0.000 C0.000 E=IC(0.626) 
N1148 X793.375 Y2233.008 A0.000 B0.000 C0.000 E=IC(0.626) 
N1150 X793.375 Y2223.093 A0.000 B0.000 C0.000 E=IC(0.626) 
N1152 X793.375 Y2213.178 A0.000 B0.000 C0.000 E=IC(0.626) 
N1154 X793.375 Y2203.263 A0.000 B0.000 C0.000 E=IC(0.626) 
N1156 X793.375 Y2193.347 A0.000 B0.000 C0.000 E=IC(0.626) 
N1158 X793.375 Y2183.432 A0.000 B0.000 C0.000 E=IC(0.626) 
N1160 X793.375 Y2173.517 A0.000 B0.000 C0.000 E=IC(0.626) 
N1162 X793.375 Y2163.602 A0.000 B0.000 C0.000 E=IC(0.626) 
N1164 X793.375 Y2153.686 A0.000 B0.000 C0.000 E=IC(0.626) 
N1166 X793.375 Y2143.771 A0.000 B0.000 C0.000 E=IC(0.626) 
N1168 X793.375 Y2133.856 A0.000 B0.000 C0.000 E=IC(0.626) 
N1170 X793.375 Y2123.941 A0.000 B0.000 C0.000 E=IC(0.626) 
N1172 X793.375 Y2114.025 A0.000 B0.000 C0.000 E=IC(0.626) 
N1174 X793.375 Y2104.110 A0.000 B0.000 C0.000 E=IC(0.626) 
N1176 X793.375 Y2094.195 A0.000 B0.000 C0.000 E=IC(0.626) 
N1178 X793.375 Y2084.280 A0.000 B0.000 C0.000 E=IC(0.626) 
N1180 X793.375 Y2074.364 A0.000 B0.000 C0.000 E=IC(0.626) 
N1182 X793.375 Y2064.449 A0.000 B0.000 C0.000 E=IC(0.626) 
N1184 X793.375 Y2054.534 A0.000 B0.000 C0.000 E=IC(0.626) 
N1186 X793.375 Y2044.619 A0.000 B0.000 C0.000 E=IC(0.626) 
N1188 X793.375 Y2034.703 A0.000 B0.000 C0.000 E=IC(0.626) 
N1190 X793.375 Y2024.788 A0.000 B0.000 C0.000 E=IC(0.626) 
N1192 X793.375 Y2014.873 A0.000 B0.000 C0.000 E=IC(0.626) 
N1194 X793.375 Y2004.958 A0.000 B0.000 C0.000 E=IC(0.626) 
N1196 X793.375 Y1995.042 A0.000 B0.000 C0.000 E=IC(0.626) 
N1198 X793.375 Y1985.127 A0.000 B0.000 C0.000 E=IC(0.626) 
N1200 X793.375 Y1975.212 A0.000 B0.000 C0.000 E=IC(0.626) 
N1202 X793.375 Y1965.297 A0.000 B0.000 C0.000 E=IC(0.626) 
N1204 X793.375 Y1955.381 A0.000 B0.000 C0.000 E=IC(0.626) 
N1206 X793.375 Y1945.466 A0.000 B0.000 C0.000 E=IC(0.626) 
N1208 X793.375 Y1935.551 A0.000 B0.000 C0.000 E=IC(0.626) 
N1210 X793.375 Y1925.635 A0.000 B0.000 C0.000 E=IC(0.626) 
N1212 X793.375 Y1915.720 A0.000 B0.000 C0.000 E=IC(0.626) 
N1214 X793.375 Y1905.805 A0.000 B0.000 C0.000 E=IC(0.626) 
N1216 X793.375 Y1895.890 A0.000 B0.000 C0.000 E=IC(0.626) 
N1218 X793.375 Y1885.975 A0.000 B0.000 C0.000 E=IC(0.626) 
N1220 X793.375 Y1876.059 A0.000 B0.000 C0.000 E=IC(0.626) 
N1222 X793.375 Y1866.144 A0.000 B0.000 C0.000 E=IC(0.626) 
N1224 X793.375 Y1856.229 A0.000 B0.000 C0.000 E=IC(0.626) 
N1226 X793.375 Y1846.313 A0.000 B0.000 C0.000 E=IC(0.626) 
N1228 X793.375 Y1836.398 A0.000 B0.000 C0.000 E=IC(0.626) 
N1230 X793.375 Y1826.483 A0.000 B0.000 C0.000 E=IC(0.626) 
N1232 X793.375 Y1816.568 A0.000 B0.000 C0.000 E=IC(0.626) 
N1234 X793.375 Y1806.653 A0.000 B0.000 C0.000 E=IC(0.626) 
N1236 X793.375 Y1796.737 A0.000 B0.000 C0.000 E=IC(0.626) 
N1238 X793.375 Y1786.822 A0.000 B0.000 C0.000 E=IC(0.626) 
N1240 X793.375 Y1776.907 A0.000 B0.000 C0.000 E=IC(0.626) 
N1242 X793.375 Y1766.991 A0.000 B0.000 C0.000 E=IC(0.626) 
N1244 X793.375 Y1757.076 A0.000 B0.000 C0.000 E=IC(0.626) 
N1246 X793.375 Y1747.161 A0.000 B0.000 C0.000 E=IC(0.626) 
N1248 X793.375 Y1737.246 A0.000 B0.000 C0.000 E=IC(0.626) 
N1250 X793.375 Y1727.331 A0.000 B0.000 C0.000 E=IC(0.626) 
N1252 X793.375 Y1717.415 A0.000 B0.000 C0.000 E=IC(0.626) 
N1254 X793.375 Y1707.500 A0.000 B0.000 C0.000 E=IC(0.626) 
N1256 X801.962 Y1702.542 A0.000 B0.000 C0.000 E=IC(0.626) 
N1258 X810.549 Y1697.585 A0.000 B0.000 C0.000 E=IC(0.626) 
N1260 X819.136 Y1692.627 A0.000 B0.000 C0.000 E=IC(0.626) 
N1262 X827.723 Y1687.669 A0.000 B0.000 C0.000 E=IC(0.626) 
N1264 X836.309 Y1682.712 A0.000 B0.000 C0.000 E=IC(0.626) 
N1266 X844.896 Y1677.754 A0.000 B0.000 C0.000 E=IC(0.626) 
N1268 X853.483 Y1672.797 A0.000 B0.000 C0.000 E=IC(0.626) 
N1270 X862.070 Y1667.839 A0.000 B0.000 C0.000 E=IC(0.626) 
N1272 X870.657 Y1662.881 A0.000 B0.000 C0.000 E=IC(0.626) 
N1274 X879.244 Y1657.924 A0.000 B0.000 C0.000 E=IC(0.626) 
N1276 X887.831 Y1652.966 A0.000 B0.000 C0.000 E=IC(0.626) 
N1278 X896.417 Y1648.009 A0.000 B0.000 C0.000 E=IC(0.626) 
N1280 X905.004 Y1643.051 A0.000 B0.000 C0.000 E=IC(0.626) 
N1282 X913.591 Y1638.093 A0.000 B0.000 C0.000 E=IC(0.626) 
N1284 X922.178 Y1633.135 A0.000 B0.000 C0.000 E=IC(0.626) 
N1286 X930.765 Y1628.178 A0.000 B0.000 C0.000 E=IC(0.626) 
N1288 X939.352 Y1623.220 A0.000 B0.000 C0.000 E=IC(0.626) 
N1290 X947.939 Y1618.263 A0.000 B0.000 C0.000 E=IC(0.626) 
N1292 X956.526 Y1613.305 A0.000 B0.000 C0.000 E=IC(0.626) 
N1294 X965.112 Y1608.347 A0.000 B0.000 C0.000 E=IC(0.626) 
N1296 X973.699 Y1603.390 A0.000 B0.000 C0.000 E=IC(0.626) 
N1298 X982.286 Y1598.432 A0.000 B0.000 C0.000 E=IC(0.626) 
N1300 X990.873 Y1593.475 A0.000 B0.000 C0.000 E=IC(0.626) 
N1302 X999.460 Y1588.517 A0.000 B0.000 C0.000 E=IC(0.626) 
N1304 X1008.047 Y1583.559 A0.000 B0.000 C0.000 E=IC(0.626) 
N1306 X1016.634 Y1578.602 A0.000 B0.000 C0.000 E=IC(0.626) 
N1308 X1025.220 Y1573.644 A0.000 B0.000 C0.000 E=IC(0.626) 
N1310 X1033.807 Y1568.687 A0.000 B0.000 C0.000 E=IC(0.626) 
N1312 X1042.394 Y1563.729 A0.000 B0.000 C0.000 E=IC(0.626) 
N1314 X1050.981 Y1558.771 A0.000 B0.000 C0.000 E=IC(0.626) 
N1316 X1059.568 Y1553.813 A0.000 B0.000 C0.000 E=IC(0.626) 
N1318 X1068.155 Y1548.856 A0.000 B0.000 C0.000 E=IC(0.626) 
N1320 X1076.742 Y1543.898 A0.000 B0.000 C0.000 E=IC(0.626) 
N1322 X1085.328 Y1538.941 A0.000 B0.000 C0.000 E=IC(0.626) 
N1324 X1093.915 Y1533.983 A0.000 B0.000 C0.000 E=IC(0.626) 
N1326 X1102.502 Y1529.025 A0.000 B0.000 C0.000 E=IC(0.626) 
N1328 X1111.089 Y1524.068 A0.000 B0.000 C0.000 E=IC(0.626) 
N1330 X1119.676 Y1519.110 A0.000 B0.000 C0.000 E=IC(0.626) 
N1332 X1128.263 Y1514.153 A0.000 B0.000 C0.000 E=IC(0.626) 
N1334 X1136.850 Y1509.195 A0.000 B0.000 C0.000 E=IC(0.626) 
N1336 X1145.437 Y1504.237 A0.000 B0.000 C0.000 E=IC(0.626) 
N1338 X1154.023 Y1499.280 A0.000 B0.000 C0.000 E=IC(0.626) 
N1340 X1162.610 Y1494.322 A0.000 B0.000 C0.000 E=IC(0.626) 
N1342 X1171.197 Y1489.364 A0.000 B0.000 C0.000 E=IC(0.626) 
N1344 X1179.784 Y1484.407 A0.000 B0.000 C0.000 E=IC(0.626) 
N1346 X1188.371 Y1479.449 A0.000 B0.000 C0.000 E=IC(0.626) 
N1348 X1196.958 Y1474.491 A0.000 B0.000 C0.000 E=IC(0.626) 
N1350 X1205.545 Y1469.534 A0.000 B0.000 C0.000 E=IC(0.626) 
N1352 X1214.131 Y1464.576 A0.000 B0.000 C0.000 E=IC(0.626) 
N1354 X1222.718 Y1459.619 A0.000 B0.000 C0.000 E=IC(0.626) 
N1356 X1231.305 Y1454.661 A0.000 B0.000 C0.000 E=IC(0.626) 
N1358 X1239.892 Y1449.703 A0.000 B0.000 C0.000 E=IC(0.626) 
N1360 X1248.479 Y1444.746 A0.000 B0.000 C0.000 E=IC(0.626) 
N1362 X1257.066 Y1439.788 A0.000 B0.000 C0.000 E=IC(0.626) 
N1364 X1265.653 Y1434.831 A0.000 B0.000 C0.000 E=IC(0.626) 
N1366 X1274.240 Y1429.873 A0.000 B0.000 C0.000 E=IC(0.626) 
N1368 X1282.826 Y1424.915 A0.000 B0.000 C0.000 E=IC(0.626) 
N1370 X1291.413 Y1419.958 A0.000 B0.000 C0.000 E=IC(0.626) 
N1372 X1300.000 Y1415.000 A0.000 B0.000 C0.000 E=IC(0.626) 
N1374 X1308.587 Y1419.958 A0.000 B0.000 C0.000 E=IC(0.626) 
N1376 X1317.174 Y1424.915 A0.000 B0.000 C0.000 E=IC(0.626) 
N1378 X1325.761 Y1429.873 A0.000 B0.000 C0.000 E=IC(0.626) 
N1380 X1334.347 Y1434.831 A0.000 B0.000 C0.000 E=IC(0.626) 
N1382 X1342.934 Y1439.788 A0.000 B0.000 C0.000 E=IC(0.626) 
N1384 X1351.521 Y1444.746 A0.000 B0.000 C0.000 E=IC(0.626) 
N1386 X1360.108 Y1449.703 A0.000 B0.000 C0.000 E=IC(0.626) 
N1388 X1368.695 Y1454.661 A0.000 B0.000 C0.000 E=IC(0.626) 
N1390 X1377.282 Y1459.619 A0.000 B0.000 C0.000 E=IC(0.626) 
N1392 X1385.869 Y1464.576 A0.000 B0.000 C0.000 E=IC(0.626) 
N1394 X1394.456 Y1469.534 A0.000 B0.000 C0.000 E=IC(0.626) 
N1396 X1403.042 Y1474.491 A0.000 B0.000 C0.000 E=IC(0.626) 
N1398 X1411.629 Y1479.449 A0.000 B0.000 C0.000 E=IC(0.626) 
N1400 X1420.216 Y1484.407 A0.000 B0.000 C0.000 E=IC(0.626) 
N1402 X1428.803 Y1489.365 A0.000 B0.000 C0.000 E=IC(0.626) 
N1404 X1437.390 Y1494.322 A0.000 B0.000 C0.000 E=IC(0.626) 
N1406 X1445.977 Y1499.280 A0.000 B0.000 C0.000 E=IC(0.626) 
N1408 X1454.563 Y1504.237 A0.000 B0.000 C0.000 E=IC(0.626) 
N1410 X1463.150 Y1509.195 A0.000 B0.000 C0.000 E=IC(0.626) 
N1412 X1471.737 Y1514.153 A0.000 B0.000 C0.000 E=IC(0.626) 
N1414 X1480.324 Y1519.110 A0.000 B0.000 C0.000 E=IC(0.626) 
N1416 X1488.911 Y1524.068 A0.000 B0.000 C0.000 E=IC(0.626) 
N1418 X1497.498 Y1529.025 A0.000 B0.000 C0.000 E=IC(0.626) 
N1420 X1506.085 Y1533.983 A0.000 B0.000 C0.000 E=IC(0.626) 
N1422 X1514.672 Y1538.941 A0.000 B0.000 C0.000 E=IC(0.626) 
N1424 X1523.258 Y1543.898 A0.000 B0.000 C0.000 E=IC(0.626) 
N1426 X1531.845 Y1548.856 A0.000 B0.000 C0.000 E=IC(0.626) 
N1428 X1540.432 Y1553.813 A0.000 B0.000 C0.000 E=IC(0.626) 
N1430 X1549.019 Y1558.771 A0.000 B0.000 C0.000 E=IC(0.626) 
N1432 X1557.606 Y1563.729 A0.000 B0.000 C0.000 E=IC(0.626) 
N1434 X1566.193 Y1568.687 A0.000 B0.000 C0.000 E=IC(0.626) 
N1436 X1574.780 Y1573.644 A0.000 B0.000 C0.000 E=IC(0.626) 
N1438 X1583.366 Y1578.602 A0.000 B0.000 C0.000 E=IC(0.626) 
N1440 X1591.953 Y1583.559 A0.000 B0.000 C0.000 E=IC(0.626) 
N1442 X1600.540 Y1588.517 A0.000 B0.000 C0.000 E=IC(0.626) 
N1444 X1609.127 Y1593.475 A0.000 B0.000 C0.000 E=IC(0.626) 
N1446 X1617.714 Y1598.432 A0.000 B0.000 C0.000 E=IC(0.626) 
N1448 X1626.301 Y1603.390 A0.000 B0.000 C0.000 E=IC(0.626) 
N1450 X1634.888 Y1608.347 A0.000 B0.000 C0.000 E=IC(0.626) 
N1452 X1643.474 Y1613.305 A0.000 B0.000 C0.000 E=IC(0.626) 
N1454 X1652.061 Y1618.263 A0.000 B0.000 C0.000 E=IC(0.626) 
N1456 X1660.648 Y1623.220 A0.000 B0.000 C0.000 E=IC(0.626) 
N1458 X1669.235 Y1628.178 A0.000 B0.000 C0.000 E=IC(0.626) 
N1460 X1677.822 Y1633.136 A0.000 B0.000 C0.000 E=IC(0.626) 
N1462 X1686.409 Y1638.093 A0.000 B0.000 C0.000 E=IC(0.626) 
N1464 X1694.996 Y1643.051 A0.000 B0.000 C0.000 E=IC(0.626) 
N1466 X1703.583 Y1648.009 A0.000 B0.000 C0.000 E=IC(0.626) 
N1468 X1712.169 Y1652.966 A0.000 B0.000 C0.000 E=IC(0.626) 
N1470 X1720.756 Y1657.924 A0.000 B0.000 C0.000 E=IC(0.626) 
N1472 X1729.343 Y1662.881 A0.000 B0.000 C0.000 E=IC(0.626) 
N1474 X1737.930 Y1667.839 A0.000 B0.000 C0.000 E=IC(0.626) 
N1476 X1746.517 Y1672.797 A0.000 B0.000 C0.000 E=IC(0.626) 
N1478 X1755.104 Y1677.754 A0.000 B0.000 C0.000 E=IC(0.626) 
N1480 X1763.691 Y1682.712 A0.000 B0.000 C0.000 E=IC(0.626) 
N1482 X1772.277 Y1687.669 A0.000 B0.000 C0.000 E=IC(0.626) 
N1484 X1780.864 Y1692.627 A0.000 B0.000 C0.000 E=IC(0.626) 
N1486 X1789.451 Y1697.585 A0.000 B0.000 C0.000 E=IC(0.626) 
N1488 X1798.038 Y1702.542 A0.000 B0.000 C0.000 E=IC(0.626) 
N1490 X1806.625 Y1707.500 A0.000 B0.000 C0.000 E=IC(0.626) 
N1492 X1806.625 Y1717.415 A0.000 B0.000 C0.000 E=IC(0.626) 
N1494 X1806.625 Y1727.331 A0.000 B0.000 C0.000 E=IC(0.626) 
N1496 X1806.625 Y1737.246 A0.000 B0.000 C0.000 E=IC(0.626) 
N1498 X1806.625 Y1747.161 A0.000 B0.000 C0.000 E=IC(0.626) 
N1500 X1806.625 Y1757.076 A0.000 B0.000 C0.000 E=IC(0.626) 
N1502 X1806.625 Y1766.991 A0.000 B0.000 C0.000 E=IC(0.626) 
N1504 X1806.625 Y1776.907 A0.000 B0.000 C0.000 E=IC(0.626) 
N1506 X1806.625 Y1786.822 A0.000 B0.000 C0.000 E=IC(0.626) 
N1508 X1806.625 Y1796.737 A0.000 B0.000 C0.000 E=IC(0.626) 
N1510 X1806.625 Y1806.653 A0.000 B0.000 C0.000 E=IC(0.626) 
N1512 X1806.625 Y1816.568 A0.000 B0.000 C0.000 E=IC(0.626) 
N1514 X1806.625 Y1826.483 A0.000 B0.000 C0.000 E=IC(0.626) 
N1516 X1806.625 Y1836.398 A0.000 B0.000 C0.000 E=IC(0.626) 
N1518 X1806.625 Y1846.313 A0.000 B0.000 C0.000 E=IC(0.626) 
N1520 X1806.625 Y1856.229 A0.000 B0.000 C0.000 E=IC(0.626) 
N1522 X1806.625 Y1866.144 A0.000 B0.000 C0.000 E=IC(0.626) 
N1524 X1806.625 Y1876.059 A0.000 B0.000 C0.000 E=IC(0.626) 
N1526 X1806.625 Y1885.975 A0.000 B0.000 C0.000 E=IC(0.626) 
N1528 X1806.625 Y1895.890 A0.000 B0.000 C0.000 E=IC(0.626) 
N1530 X1806.625 Y1905.805 A0.000 B0.000 C0.000 E=IC(0.626) 
N1532 X1806.625 Y1915.720 A0.000 B0.000 C0.000 E=IC(0.626) 
N1534 X1806.625 Y1925.636 A0.000 B0.000 C0.000 E=IC(0.626) 
N1536 X1806.625 Y1935.551 A0.000 B0.000 C0.000 E=IC(0.626) 
N1538 X1806.625 Y1945.466 A0.000 B0.000 C0.000 E=IC(0.626) 
N1540 X1806.625 Y1955.381 A0.000 B0.000 C0.000 E=IC(0.626) 
N1542 X1806.625 Y1965.297 A0.000 B0.000 C0.000 E=IC(0.626) 
N1544 X1806.625 Y1975.212 A0.000 B0.000 C0.000 E=IC(0.626) 
N1546 X1806.625 Y1985.127 A0.000 B0.000 C0.000 E=IC(0.626) 
N1548 X1806.625 Y1995.000 A0.000 B0.000 C0.000 E=IC(0.623) 
OVR=100 ;Disengaging
N1550 G0 X1806.625 Y1995.042 A0.000 B0.000 C0.000 
N1552 X1806.625 Y2000.000 A0.000 B0.000 C0.000 
;-----------------------LAYER 1----------------------
N1554 G1 X1806.625 Y2000.000 Z10.160 A0.000 B0.000 C0.000 F1757.539 E=IC(0.320) 
N1556 X1806.625 Y2004.958 A0.000 B0.000 C0.000 E=IC(0.313) 
N1558 X1806.625 Y2014.873 A0.000 B0.000 C0.000 E=IC(0.626) 
N1560 X1806.625 Y2024.788 A0.000 B0.000 C0.000 E=IC(0.626) 
N1562 X1806.625 Y2034.703 A0.000 B0.000 C0.000 E=IC(0.626) 
N1564 X1806.625 Y2044.619 A0.000 B0.000 C0.000 E=IC(0.626) 
N1566 X1806.625 Y2054.534 A0.000 B0.000 C0.000 E=IC(0.626) 
N1568 X1806.625 Y2064.449 A0.000 B0.000 C0.000 E=IC(0.626) 
N1570 X1806.625 Y2074.365 A0.000 B0.000 C0.000 E=IC(0.626) 
N1572 X1806.625 Y2084.280 A0.000 B0.000 C0.000 E=IC(0.626) 
N1574 X1806.625 Y2094.195 A0.000 B0.000 C0.000 E=IC(0.626) 
N1576 X1806.625 Y2104.110 A0.000 B0.000 C0.000 E=IC(0.626) 
N1578 X1806.625 Y2114.026 A0.000 B0.000 C0.000 E=IC(0.626) 
N1580 X1806.625 Y2123.941 A0.000 B0.000 C0.000 E=IC(0.626) 
N1582 X1806.625 Y2133.856 A0.000 B0.000 C0.000 E=IC(0.626) 
N1584 X1806.625 Y2143.771 A0.000 B0.000 C0.000 E=IC(0.626) 
N1586 X1806.625 Y2153.687 A0.000 B0.000 C0.000 E=IC(0.626) 
N1588 X1806.625 Y2163.602 A0.000 B0.000 C0.000 E=IC(0.626) 
N1590 X1806.625 Y2173.517 A0.000 B0.000 C0.000 E=IC(0.626) 
N1592 X1806.625 Y2183.432 A0.000 B0.000 C0.000 E=IC(0.626) 
N1594 X1806.625 Y2193.348 A0.000 B0.000 C0.000 E=IC(0.626) 
N1596 X1806.625 Y2203.263 A0.000 B0.000 C0.000 E=IC(0.626) 
N1598 X1806.625 Y2213.178 A0.000 B0.000 C0.000 E=IC(0.626) 
N1600 X1806.625 Y2223.093 A0.000 B0.000 C0.000 E=IC(0.626) 
N1602 X1806.625 Y2233.009 A0.000 B0.000 C0.000 E=IC(0.626) 
N1604 X1806.625 Y2242.924 A0.000 B0.000 C0.000 E=IC(0.626) 
N1606 X1806.625 Y2252.839 A0.000 B0.000 C0.000 E=IC(0.626) 
N1608 X1806.625 Y2262.754 A0.000 B0.000 C0.000 E=IC(0.626) 
N1610 X1806.625 Y2272.670 A0.000 B0.000 C0.000 E=IC(0.626) 
N1612 X1806.625 Y2282.585 A0.000 B0.000 C0.000 E=IC(0.626) 
N1614 X1806.625 Y2292.500 A0.000 B0.000 C0.000 E=IC(0.626) 
N1616 X1798.038 Y2297.458 A0.000 B0.000 C0.000 E=IC(0.626) 
N1618 X1789.451 Y2302.415 A0.000 B0.000 C0.000 E=IC(0.626) 
N1620 X1780.864 Y2307.373 A0.000 B0.000 C0.000 E=IC(0.626) 
N1622 X1772.277 Y2312.331 A0.000 B0.000 C0.000 E=IC(0.626) 
N1624 X1763.691 Y2317.288 A0.000 B0.000 C0.000 E=IC(0.626) 
N1626 X1755.104 Y2322.246 A0.000 B0.000 C0.000 E=IC(0.626) 
N1628 X1746.517 Y2327.203 A0.000 B0.000 C0.000 E=IC(0.626) 
N1630 X1737.930 Y2332.161 A0.000 B0.000 C0.000 E=IC(0.626) 
N1632 X1729.343 Y2337.119 A0.000 B0.000 C0.000 E=IC(0.626) 
N1634 X1720.756 Y2342.076 A0.000 B0.000 C0.000 E=IC(0.626) 
N1636 X1712.169 Y2347.034 A0.000 B0.000 C0.000 E=IC(0.626) 
N1638 X1703.583 Y2351.992 A0.000 B0.000 C0.000 E=IC(0.626) 
N1640 X1694.996 Y2356.949 A0.000 B0.000 C0.000 E=IC(0.626) 
N1642 X1686.409 Y2361.907 A0.000 B0.000 C0.000 E=IC(0.626) 
N1644 X1679.968 Y2365.625 A0.000 B0.000 C0.000 E=IC(0.469) 
N1646 X1677.822 Y2366.865 A0.000 B0.000 C0.000 E=IC(0.156) 
N1648 X1669.235 Y2371.822 A0.000 B0.000 C0.000 E=IC(0.626) 
N1650 X1660.648 Y2376.780 A0.000 B0.000 C0.000 E=IC(0.626) 
N1652 X1652.061 Y2381.737 A0.000 B0.000 C0.000 E=IC(0.626) 
N1654 X1643.474 Y2386.695 A0.000 B0.000 C0.000 E=IC(0.626) 
N1656 X1634.888 Y2391.653 A0.000 B0.000 C0.000 E=IC(0.626) 
N1658 X1626.301 Y2396.610 A0.000 B0.000 C0.000 E=IC(0.626) 
N1660 X1617.714 Y2401.568 A0.000 B0.000 C0.000 E=IC(0.626) 
N1662 X1609.127 Y2406.525 A0.000 B0.000 C0.000 E=IC(0.626) 
N1664 X1600.540 Y2411.483 A0.000 B0.000 C0.000 E=IC(0.626) 
N1666 X1591.953 Y2416.441 A0.000 B0.000 C0.000 E=IC(0.626) 
N1668 X1583.366 Y2421.398 A0.000 B0.000 C0.000 E=IC(0.626) 
N1670 X1574.780 Y2426.356 A0.000 B0.000 C0.000 E=IC(0.626) 
N1672 X1566.193 Y2431.314 A0.000 B0.000 C0.000 E=IC(0.626) 
N1674 X1557.606 Y2436.271 A0.000 B0.000 C0.000 E=IC(0.626) 
N1676 X1549.019 Y2441.229 A0.000 B0.000 C0.000 E=IC(0.626) 
N1678 X1540.432 Y2446.187 A0.000 B0.000 C0.000 E=IC(0.626) 
N1680 X1531.845 Y2451.144 A0.000 B0.000 C0.000 E=IC(0.626) 
N1682 X1523.258 Y2456.102 A0.000 B0.000 C0.000 E=IC(0.626) 
N1684 X1514.672 Y2461.059 A0.000 B0.000 C0.000 E=IC(0.626) 
N1686 X1506.085 Y2466.017 A0.000 B0.000 C0.000 E=IC(0.626) 
N1688 X1497.498 Y2470.975 A0.000 B0.000 C0.000 E=IC(0.626) 
N1690 X1488.911 Y2475.932 A0.000 B0.000 C0.000 E=IC(0.626) 
N1692 X1480.324 Y2480.890 A0.000 B0.000 C0.000 E=IC(0.626) 
N1694 X1471.737 Y2485.847 A0.000 B0.000 C0.000 E=IC(0.626) 
N1696 X1463.150 Y2490.805 A0.000 B0.000 C0.000 E=IC(0.626) 
N1698 X1454.563 Y2495.763 A0.000 B0.000 C0.000 E=IC(0.626) 
N1700 X1445.977 Y2500.720 A0.000 B0.000 C0.000 E=IC(0.626) 
N1702 X1437.390 Y2505.678 A0.000 B0.000 C0.000 E=IC(0.626) 
N1704 X1428.803 Y2510.636 A0.000 B0.000 C0.000 E=IC(0.626) 
N1706 X1420.216 Y2515.593 A0.000 B0.000 C0.000 E=IC(0.626) 
N1708 X1411.629 Y2520.551 A0.000 B0.000 C0.000 E=IC(0.626) 
N1710 X1403.042 Y2525.509 A0.000 B0.000 C0.000 E=IC(0.626) 
N1712 X1394.455 Y2530.466 A0.000 B0.000 C0.000 E=IC(0.626) 
N1714 X1385.869 Y2535.424 A0.000 B0.000 C0.000 E=IC(0.626) 
N1716 X1377.282 Y2540.381 A0.000 B0.000 C0.000 E=IC(0.626) 
N1718 X1368.695 Y2545.339 A0.000 B0.000 C0.000 E=IC(0.626) 
N1720 X1360.108 Y2550.297 A0.000 B0.000 C0.000 E=IC(0.626) 
N1722 X1351.521 Y2555.254 A0.000 B0.000 C0.000 E=IC(0.626) 
N1724 X1342.934 Y2560.212 A0.000 B0.000 C0.000 E=IC(0.626) 
N1726 X1334.347 Y2565.169 A0.000 B0.000 C0.000 E=IC(0.626) 
N1728 X1325.760 Y2570.127 A0.000 B0.000 C0.000 E=IC(0.626) 
N1730 X1317.174 Y2575.085 A0.000 B0.000 C0.000 E=IC(0.626) 
N1732 X1308.587 Y2580.042 A0.000 B0.000 C0.000 E=IC(0.626) 
N1734 X1300.000 Y2585.000 A0.000 B0.000 C0.000 E=IC(0.626) 
N1736 X1291.413 Y2580.042 A0.000 B0.000 C0.000 E=IC(0.626) 
N1738 X1282.826 Y2575.085 A0.000 B0.000 C0.000 E=IC(0.626) 
N1740 X1274.239 Y2570.127 A0.000 B0.000 C0.000 E=IC(0.626) 
N1742 X1265.653 Y2565.169 A0.000 B0.000 C0.000 E=IC(0.626) 
N1744 X1257.066 Y2560.212 A0.000 B0.000 C0.000 E=IC(0.626) 
N1746 X1248.479 Y2555.254 A0.000 B0.000 C0.000 E=IC(0.626) 
N1748 X1239.892 Y2550.297 A0.000 B0.000 C0.000 E=IC(0.626) 
N1750 X1231.305 Y2545.339 A0.000 B0.000 C0.000 E=IC(0.626) 
N1752 X1222.718 Y2540.381 A0.000 B0.000 C0.000 E=IC(0.626) 
N1754 X1214.131 Y2535.424 A0.000 B0.000 C0.000 E=IC(0.626) 
N1756 X1205.544 Y2530.466 A0.000 B0.000 C0.000 E=IC(0.626) 
N1758 X1196.958 Y2525.509 A0.000 B0.000 C0.000 E=IC(0.626) 
N1760 X1188.371 Y2520.551 A0.000 B0.000 C0.000 E=IC(0.626) 
N1762 X1179.784 Y2515.593 A0.000 B0.000 C0.000 E=IC(0.626) 
N1764 X1171.197 Y2510.636 A0.000 B0.000 C0.000 E=IC(0.626) 
N1766 X1162.610 Y2505.678 A0.000 B0.000 C0.000 E=IC(0.626) 
N1768 X1154.023 Y2500.720 A0.000 B0.000 C0.000 E=IC(0.626) 
N1770 X1145.437 Y2495.763 A0.000 B0.000 C0.000 E=IC(0.626) 
N1772 X1136.850 Y2490.805 A0.000 B0.000 C0.000 E=IC(0.626) 
N1774 X1128.263 Y2485.847 A0.000 B0.000 C0.000 E=IC(0.626) 
N1776 X1119.676 Y2480.890 A0.000 B0.000 C0.000 E=IC(0.626) 
N1778 X1111.089 Y2475.932 A0.000 B0.000 C0.000 E=IC(0.626) 
N1780 X1102.502 Y2470.975 A0.000 B0.000 C0.000 E=IC(0.626) 
N1782 X1093.915 Y2466.017 A0.000 B0.000 C0.000 E=IC(0.626) 
N1784 X1085.328 Y2461.059 A0.000 B0.000 C0.000 E=IC(0.626) 
N1786 X1076.742 Y2456.102 A0.000 B0.000 C0.000 E=IC(0.626) 
N1788 X1068.155 Y2451.144 A0.000 B0.000 C0.000 E=IC(0.626) 
N1790 X1059.568 Y2446.186 A0.000 B0.000 C0.000 E=IC(0.626) 
N1792 X1050.981 Y2441.229 A0.000 B0.000 C0.000 E=IC(0.626) 
N1794 X1042.394 Y2436.271 A0.000 B0.000 C0.000 E=IC(0.626) 
N1796 X1033.807 Y2431.313 A0.000 B0.000 C0.000 E=IC(0.626) 
N1798 X1025.220 Y2426.356 A0.000 B0.000 C0.000 E=IC(0.626) 
N1800 X1016.634 Y2421.398 A0.000 B0.000 C0.000 E=IC(0.626) 
N1802 X1008.047 Y2416.441 A0.000 B0.000 C0.000 E=IC(0.626) 
N1804 X999.460 Y2411.483 A0.000 B0.000 C0.000 E=IC(0.626) 
N1806 X990.873 Y2406.525 A0.000 B0.000 C0.000 E=IC(0.626) 
N1808 X982.286 Y2401.568 A0.000 B0.000 C0.000 E=IC(0.626) 
N1810 X973.699 Y2396.610 A0.000 B0.000 C0.000 E=IC(0.626) 
N1812 X965.112 Y2391.653 A0.000 B0.000 C0.000 E=IC(0.626) 
N1814 X956.526 Y2386.695 A0.000 B0.000 C0.000 E=IC(0.626) 
N1816 X947.939 Y2381.737 A0.000 B0.000 C0.000 E=IC(0.626) 
N1818 X939.352 Y2376.780 A0.000 B0.000 C0.000 E=IC(0.626) 
N1820 X930.765 Y2371.822 A0.000 B0.000 C0.000 E=IC(0.626) 
N1822 X922.178 Y2366.864 A0.000 B0.000 C0.000 E=IC(0.626) 
N1824 X913.591 Y2361.907 A0.000 B0.000 C0.000 E=IC(0.626) 
N1826 X905.004 Y2356.949 A0.000 B0.000 C0.000 E=IC(0.626) 
N1828 X896.417 Y2351.991 A0.000 B0.000 C0.000 E=IC(0.626) 
N1830 X887.831 Y2347.034 A0.000 B0.000 C0.000 E=IC(0.626) 
N1832 X879.244 Y2342.076 A0.000 B0.000 C0.000 E=IC(0.626) 
N1834 X870.657 Y2337.119 A0.000 B0.000 C0.000 E=IC(0.626) 
N1836 X862.070 Y2332.161 A0.000 B0.000 C0.000 E=IC(0.626) 
N1838 X853.483 Y2327.203 A0.000 B0.000 C0.000 E=IC(0.626) 
N1840 X844.896 Y2322.246 A0.000 B0.000 C0.000 E=IC(0.626) 
N1842 X836.309 Y2317.288 A0.000 B0.000 C0.000 E=IC(0.626) 
N1844 X827.723 Y2312.330 A0.000 B0.000 C0.000 E=IC(0.626) 
N1846 X819.136 Y2307.373 A0.000 B0.000 C0.000 E=IC(0.626) 
N1848 X810.549 Y2302.415 A0.000 B0.000 C0.000 E=IC(0.626) 
N1850 X801.962 Y2297.458 A0.000 B0.000 C0.000 E=IC(0.626) 
N1852 X793.375 Y2292.500 A0.000 B0.000 C0.000 E=IC(0.626) 
N1854 X793.375 Y2282.585 A0.000 B0.000 C0.000 E=IC(0.626) 
N1856 X793.375 Y2272.669 A0.000 B0.000 C0.000 E=IC(0.626) 
N1858 X793.375 Y2262.754 A0.000 B0.000 C0.000 E=IC(0.626) 
N1860 X793.375 Y2252.839 A0.000 B0.000 C0.000 E=IC(0.626) 
N1862 X793.375 Y2242.924 A0.000 B0.000 C0.000 E=IC(0.626) 
N1864 X793.375 Y2233.008 A0.000 B0.000 C0.000 E=IC(0.626) 
N1866 X793.375 Y2223.093 A0.000 B0.000 C0.000 E=IC(0.626) 
N1868 X793.375 Y2213.178 A0.000 B0.000 C0.000 E=IC(0.626) 
N1870 X793.375 Y2203.263 A0.000 B0.000 C0.000 E=IC(0.626) 
N1872 X793.375 Y2193.347 A0.000 B0.000 C0.000 E=IC(0.626) 
N1874 X793.375 Y2183.432 A0.000 B0.000 C0.000 E=IC(0.626) 
N1876 X793.375 Y2173.517 A0.000 B0.000 C0.000 E=IC(0.626) 
N1878 X793.375 Y2163.602 A0.000 B0.000 C0.000 E=IC(0.626) 
N1880 X793.375 Y2153.686 A0.000 B0.000 C0.000 E=IC(0.626) 
N1882 X793.375 Y2143.771 A0.000 B0.000 C0.000 E=IC(0.626) 
N1884 X793.375 Y2133.856 A0.000 B0.000 C0.000 E=IC(0.626) 
N1886 X793.375 Y2123.941 A0.000 B0.000 C0.000 E=IC(0.626) 
N1888 X793.375 Y2114.025 A0.000 B0.000 C0.000 E=IC(0.626) 
N1890 X793.375 Y2104.110 A0.000 B0.000 C0.000 E=IC(0.626) 
N1892 X793.375 Y2094.195 A0.000 B0.000 C0.000 E=IC(0.626) 
N1894 X793.375 Y2084.280 A0.000 B0.000 C0.000 E=IC(0.626) 
N1896 X793.375 Y2074.364 A0.000 B0.000 C0.000 E=IC(0.626) 
N1898 X793.375 Y2064.449 A0.000 B0.000 C0.000 E=IC(0.626) 
N1900 X793.375 Y2054.534 A0.000 B0.000 C0.000 E=IC(0.626) 
N1902 X793.375 Y2044.619 A0.000 B0.000 C0.000 E=IC(0.626) 
N1904 X793.375 Y2034.703 A0.000 B0.000 C0.000 E=IC(0.626) 
N1906 X793.375 Y2024.788 A0.000 B0.000 C0.000 E=IC(0.626) 
N1908 X793.375 Y2014.873 A0.000 B0.000 C0.000 E=IC(0.626) 
N1910 X793.375 Y2004.958 A0.000 B0.000 C0.000 E=IC(0.626) 
N1912 X793.375 Y1995.042 A0.000 B0.000 C0.000 E=IC(0.626) 
N1914 X793.375 Y1985.127 A0.000 B0.000 C0.000 E=IC(0.626) 
N1916 X793.375 Y1975.212 A0.000 B0.000 C0.000 E=IC(0.626) 
N1918 X793.375 Y1965.297 A0.000 B0.000 C0.000 E=IC(0.626) 
N1920 X793.375 Y1955.381 A0.000 B0.000 C0.000 E=IC(0.626) 
N1922 X793.375 Y1945.466 A0.000 B0.000 C0.000 E=IC(0.626) 
N1924 X793.375 Y1935.551 A0.000 B0.000 C0.000 E=IC(0.626) 
N1926 X793.375 Y1925.635 A0.000 B0.000 C0.000 E=IC(0.626) 
N1928 X793.375 Y1915.720 A0.000 B0.000 C0.000 E=IC(0.626) 
N1930 X793.375 Y1905.805 A0.000 B0.000 C0.000 E=IC(0.626) 
N1932 X793.375 Y1895.890 A0.000 B0.000 C0.000 E=IC(0.626) 
N1934 X793.375 Y1885.975 A0.000 B0.000 C0.000 E=IC(0.626) 
N1936 X793.375 Y1876.059 A0.000 B0.000 C0.000 E=IC(0.626) 
N1938 X793.375 Y1866.144 A0.000 B0.000 C0.000 E=IC(0.626) 
N1940 X793.375 Y1856.229 A0.000 B0.000 C0.000 E=IC(0.626) 
N1942 X793.375 Y1846.313 A0.000 B0.000 C0.000 E=IC(0.626) 
N1944 X793.375 Y1836.398 A0.000 B0.000 C0.000 E=IC(0.626) 
N1946 X793.375 Y1826.483 A0.000 B0.000 C0.000 E=IC(0.626) 
N1948 X793.375 Y1816.568 A0.000 B0.000 C0.000 E=IC(0.626) 
N1950 X793.375 Y1806.653 A0.000 B0.000 C0.000 E=IC(0.626) 
N1952 X793.375 Y1796.737 A0.000 B0.000 C0.000 E=IC(0.626) 
N1954 X793.375 Y1786.822 A0.000 B0.000 C0.000 E=IC(0.626) 
N1956 X793.375 Y1776.907 A0.000 B0.000 C0.000 E=IC(0.626) 
N1958 X793.375 Y1766.991 A0.000 B0.000 C0.000 E=IC(0.626) 
N1960 X793.375 Y1757.076 A0.000 B0.000 C0.000 E=IC(0.626) 
N1962 X793.375 Y1747.161 A0.000 B0.000 C0.000 E=IC(0.626) 
N1964 X793.375 Y1737.246 A0.000 B0.000 C0.000 E=IC(0.626) 
N1966 X793.375 Y1727.331 A0.000 B0.000 C0.000 E=IC(0.626) 
N1968 X793.375 Y1717.415 A0.000 B0.000 C0.000 E=IC(0.626) 
N1970 X793.375 Y1707.500 A0.000 B0.000 C0.000 E=IC(0.626) 
N1972 X801.962 Y1702.542 A0.000 B0.000 C0.000 E=IC(0.626) 
N1974 X810.549 Y1697.585 A0.000 B0.000 C0.000 E=IC(0.626) 
N1976 X819.136 Y1692.627 A0.000 B0.000 C0.000 E=IC(0.626) 
N1978 X827.723 Y1687.669 A0.000 B0.000 C0.000 E=IC(0.626) 
N1980 X836.309 Y1682.712 A0.000 B0.000 C0.000 E=IC(0.626) 
N1982 X844.896 Y1677.754 A0.000 B0.000 C0.000 E=IC(0.626) 
N1984 X853.483 Y1672.797 A0.000 B0.000 C0.000 E=IC(0.626) 
N1986 X862.070 Y1667.839 A0.000 B0.000 C0.000 E=IC(0.626) 
N1988 X870.657 Y1662.881 A0.000 B0.000 C0.000 E=IC(0.626) 
N1990 X879.244 Y1657.924 A0.000 B0.000 C0.000 E=IC(0.626) 
N1992 X887.831 Y1652.966 A0.000 B0.000 C0.000 E=IC(0.626) 
N1994 X896.417 Y1648.009 A0.000 B0.000 C0.000 E=IC(0.626) 
N1996 X905.004 Y1643.051 A0.000 B0.000 C0.000 E=IC(0.626) 
N1998 X913.591 Y1638.093 A0.000 B0.000 C0.000 E=IC(0.626) 
N2000 X922.178 Y1633.135 A0.000 B0.000 C0.000 E=IC(0.626) 
N2002 X930.765 Y1628.178 A0.000 B0.000 C0.000 E=IC(0.626) 
N2004 X939.352 Y1623.220 A0.000 B0.000 C0.000 E=IC(0.626) 
N2006 X947.939 Y1618.263 A0.000 B0.000 C0.000 E=IC(0.626) 
N2008 X956.526 Y1613.305 A0.000 B0.000 C0.000 E=IC(0.626) 
N2010 X965.112 Y1608.347 A0.000 B0.000 C0.000 E=IC(0.626) 
N2012 X973.699 Y1603.390 A0.000 B0.000 C0.000 E=IC(0.626) 
N2014 X982.286 Y1598.432 A0.000 B0.000 C0.000 E=IC(0.626) 
N2016 X990.873 Y1593.475 A0.000 B0.000 C0.000 E=IC(0.626) 
N2018 X999.460 Y1588.517 A0.000 B0.000 C0.000 E=IC(0.626) 
N2020 X1008.047 Y1583.559 A0.000 B0.000 C0.000 E=IC(0.626) 
N2022 X1016.634 Y1578.602 A0.000 B0.000 C0.000 E=IC(0.626) 
N2024 X1025.220 Y1573.644 A0.000 B0.000 C0.000 E=IC(0.626) 
N2026 X1033.807 Y1568.687 A0.000 B0.000 C0.000 E=IC(0.626) 
N2028 X1042.394 Y1563.729 A0.000 B0.000 C0.000 E=IC(0.626) 
N2030 X1050.981 Y1558.771 A0.000 B0.000 C0.000 E=IC(0.626) 
N2032 X1059.568 Y1553.813 A0.000 B0.000 C0.000 E=IC(0.626) 
N2034 X1068.155 Y1548.856 A0.000 B0.000 C0.000 E=IC(0.626) 
N2036 X1076.742 Y1543.898 A0.000 B0.000 C0.000 E=IC(0.626) 
N2038 X1085.328 Y1538.941 A0.000 B0.000 C0.000 E=IC(0.626) 
N2040 X1093.915 Y1533.983 A0.000 B0.000 C0.000 E=IC(0.626) 
N2042 X1102.502 Y1529.025 A0.000 B0.000 C0.000 E=IC(0.626) 
N2044 X1111.089 Y1524.068 A0.000 B0.000 C0.000 E=IC(0.626) 
N2046 X1119.676 Y1519.110 A0.000 B0.000 C0.000 E=IC(0.626) 
N2048 X1128.263 Y1514.153 A0.000 B0.000 C0.000 E=IC(0.626) 
N2050 X1136.850 Y1509.195 A0.000 B0.000 C0.000 E=IC(0.626) 
N2052 X1145.437 Y1504.237 A0.000 B0.000 C0.000 E=IC(0.626) 
N2054 X1154.023 Y1499.280 A0.000 B0.000 C0.000 E=IC(0.626) 
N2056 X1162.610 Y1494.322 A0.000 B0.000 C0.000 E=IC(0.626) 
N2058 X1171.197 Y1489.364 A0.000 B0.000 C0.000 E=IC(0.626) 
N2060 X1179.784 Y1484.407 A0.000 B0.000 C0.000 E=IC(0.626) 
N2062 X1188.371 Y1479.449 A0.000 B0.000 C0.000 E=IC(0.626) 
N2064 X1196.958 Y1474.491 A0.000 B0.000 C0.000 E=IC(0.626) 
N2066 X1205.545 Y1469.534 A0.000 B0.000 C0.000 E=IC(0.626) 
N2068 X1214.131 Y1464.576 A0.000 B0.000 C0.000 E=IC(0.626) 
N2070 X1222.718 Y1459.619 A0.000 B0.000 C0.000 E=IC(0.626) 
N2072 X1231.305 Y1454.661 A0.000 B0.000 C0.000 E=IC(0.626) 
N2074 X1239.892 Y1449.703 A0.000 B0.000 C0.000 E=IC(0.626) 
N2076 X1248.479 Y1444.746 A0.000 B0.000 C0.000 E=IC(0.626) 
N2078 X1257.066 Y1439.788 A0.000 B0.000 C0.000 E=IC(0.626) 
N2080 X1265.653 Y1434.831 A0.000 B0.000 C0.000 E=IC(0.626) 
N2082 X1274.240 Y1429.873 A0.000 B0.000 C0.000 E=IC(0.626) 
N2084 X1282.826 Y1424.915 A0.000 B0.000 C0.000 E=IC(0.626) 
N2086 X1291.413 Y1419.958 A0.000 B0.000 C0.000 E=IC(0.626) 
N2088 X1300.000 Y1415.000 A0.000 B0.000 C0.000 E=IC(0.626) 
N2090 X1308.587 Y1419.958 A0.000 B0.000 C0.000 E=IC(0.626) 
N2092 X1317.174 Y1424.915 A0.000 B0.000 C0.000 E=IC(0.626) 
N2094 X1325.761 Y1429.873 A0.000 B0.000 C0.000 E=IC(0.626) 
N2096 X1334.347 Y1434.831 A0.000 B0.000 C0.000 E=IC(0.626) 
N2098 X1342.934 Y1439.788 A0.000 B0.000 C0.000 E=IC(0.626) 
N2100 X1351.521 Y1444.746 A0.000 B0.000 C0.000 E=IC(0.626) 
N2102 X1360.108 Y1449.703 A0.000 B0.000 C0.000 E=IC(0.626) 
N2104 X1368.695 Y1454.661 A0.000 B0.000 C0.000 E=IC(0.626) 
N2106 X1377.282 Y1459.619 A0.000 B0.000 C0.000 E=IC(0.626) 
N2108 X1385.869 Y1464.576 A0.000 B0.000 C0.000 E=IC(0.626) 
N2110 X1394.456 Y1469.534 A0.000 B0.000 C0.000 E=IC(0.626) 
N2112 X1403.042 Y1474.491 A0.000 B0.000 C0.000 E=IC(0.626) 
N2114 X1411.629 Y1479.449 A0.000 B0.000 C0.000 E=IC(0.626) 
N2116 X1420.216 Y1484.407 A0.000 B0.000 C0.000 E=IC(0.626) 
N2118 X1428.803 Y1489.365 A0.000 B0.000 C0.000 E=IC(0.626) 
N2120 X1437.390 Y1494.322 A0.000 B0.000 C0.000 E=IC(0.626) 
N2122 X1445.977 Y1499.280 A0.000 B0.000 C0.000 E=IC(0.626) 
N2124 X1454.563 Y1504.237 A0.000 B0.000 C0.000 E=IC(0.626) 
N2126 X1463.150 Y1509.195 A0.000 B0.000 C0.000 E=IC(0.626) 
N2128 X1471.737 Y1514.153 A0.000 B0.000 C0.000 E=IC(0.626) 
N2130 X1480.324 Y1519.110 A0.000 B0.000 C0.000 E=IC(0.626) 
N2132 X1488.911 Y1524.068 A0.000 B0.000 C0.000 E=IC(0.626) 
N2134 X1497.498 Y1529.025 A0.000 B0.000 C0.000 E=IC(0.626) 
N2136 X1506.085 Y1533.983 A0.000 B0.000 C0.000 E=IC(0.626) 
N2138 X1514.672 Y1538.941 A0.000 B0.000 C0.000 E=IC(0.626) 
N2140 X1523.258 Y1543.898 A0.000 B0.000 C0.000 E=IC(0.626) 
N2142 X1531.845 Y1548.856 A0.000 B0.000 C0.000 E=IC(0.626) 
N2144 X1540.432 Y1553.813 A0.000 B0.000 C0.000 E=IC(0.626) 
N2146 X1549.019 Y1558.771 A0.000 B0.000 C0.000 E=IC(0.626) 
N2148 X1557.606 Y1563.729 A0.000 B0.000 C0.000 E=IC(0.626) 
N2150 X1566.193 Y1568.687 A0.000 B0.000 C0.000 E=IC(0.626) 
N2152 X1574.780 Y1573.644 A0.000 B0.000 C0.000 E=IC(0.626) 
N2154 X1583.366 Y1578.602 A0.000 B0.000 C0.000 E=IC(0.626) 
N2156 X1591.953 Y1583.559 A0.000 B0.000 C0.000 E=IC(0.626) 
N2158 X1600.540 Y1588.517 A0.000 B0.000 C0.000 E=IC(0.626) 
N2160 X1609.127 Y1593.475 A0.000 B0.000 C0.000 E=IC(0.626) 
N2162 X1617.714 Y1598.432 A0.000 B0.000 C0.000 E=IC(0.626) 
N2164 X1626.301 Y1603.390 A0.000 B0.000 C0.000 E=IC(0.626) 
N2166 X1634.888 Y1608.347 A0.000 B0.000 C0.000 E=IC(0.626) 
N2168 X1643.474 Y1613.305 A0.000 B0.000 C0.000 E=IC(0.626) 
N2170 X1652.061 Y1618.263 A0.000 B0.000 C0.000 E=IC(0.626) 
N2172 X1660.648 Y1623.220 A0.000 B0.000 C0.000 E=IC(0.626) 
N2174 X1669.235 Y1628.178 A0.000 B0.000 C0.000 E=IC(0.626) 
N2176 X1677.822 Y1633.136 A0.000 B0.000 C0.000 E=IC(0.626) 
N2178 X1686.409 Y1638.093 A0.000 B0.000 C0.000 E=IC(0.626) 
N2180 X1694.996 Y1643.051 A0.000 B0.000 C0.000 E=IC(0.626) 
N2182 X1703.583 Y1648.009 A0.000 B0.000 C0.000 E=IC(0.626) 
N2184 X1712.169 Y1652.966 A0.000 B0.000 C0.000 E=IC(0.626) 
N2186 X1720.756 Y1657.924 A0.000 B0.000 C0.000 E=IC(0.626) 
N2188 X1729.343 Y1662.881 A0.000 B0.000 C0.000 E=IC(0.626) 
N2190 X1737.930 Y1667.839 A0.000 B0.000 C0.000 E=IC(0.626) 
N2192 X1746.517 Y1672.797 A0.000 B0.000 C0.000 E=IC(0.626) 
N2194 X1755.104 Y1677.754 A0.000 B0.000 C0.000 E=IC(0.626) 
N2196 X1763.691 Y1682.712 A0.000 B0.000 C0.000 E=IC(0.626) 
N2198 X1772.277 Y1687.669 A0.000 B0.000 C0.000 E=IC(0.626) 
N2200 X1780.864 Y1692.627 A0.000 B0.000 C0.000 E=IC(0.626) 
N2202 X1789.451 Y1697.585 A0.000 B0.000 C0.000 E=IC(0.626) 
N2204 X1798.038 Y1702.542 A0.000 B0.000 C0.000 E=IC(0.626) 
N2206 X1806.625 Y1707.500 A0.000 B0.000 C0.000 E=IC(0.626) 
N2208 X1806.625 Y1717.415 A0.000 B0.000 C0.000 E=IC(0.626) 
N2210 X1806.625 Y1727.331 A0.000 B0.000 C0.000 E=IC(0.626) 
N2212 X1806.625 Y1737.246 A0.000 B0.000 C0.000 E=IC(0.626) 
N2214 X1806.625 Y1747.161 A0.000 B0.000 C0.000 E=IC(0.626) 
N2216 X1806.625 Y1757.076 A0.000 B0.000 C0.000 E=IC(0.626) 
N2218 X1806.625 Y1766.991 A0.000 B0.000 C0.000 E=IC(0.626) 
N2220 X1806.625 Y1776.907 A0.000 B0.000 C0.000 E=IC(0.626) 
N2222 X1806.625 Y1786.822 A0.000 B0.000 C0.000 E=IC(0.626) 
N2224 X1806.625 Y1796.737 A0.000 B0.000 C0.000 E=IC(0.626) 
N2226 X1806.625 Y1806.653 A0.000 B0.000 C0.000 E=IC(0.626) 
N2228 X1806.625 Y1816.568 A0.000 B0.000 C0.000 E=IC(0.626) 
N2230 X1806.625 Y1826.483 A0.000 B0.000 C0.000 E=IC(0.626) 
N2232 X1806.625 Y1836.398 A0.000 B0.000 C0.000 E=IC(0.626) 
N2234 X1806.625 Y1846.313 A0.000 B0.000 C0.000 E=IC(0.626) 
N2236 X1806.625 Y1856.229 A0.000 B0.000 C0.000 E=IC(0.626) 
N2238 X1806.625 Y1866.144 A0.000 B0.000 C0.000 E=IC(0.626) 
N2240 X1806.625 Y1876.059 A0.000 B0.000 C0.000 E=IC(0.626) 
N2242 X1806.625 Y1885.975 A0.000 B0.000 C0.000 E=IC(0.626) 
N2244 X1806.625 Y1895.890 A0.000 B0.000 C0.000 E=IC(0.626) 
N2246 X1806.625 Y1905.805 A0.000 B0.000 C0.000 E=IC(0.626) 
N2248 X1806.625 Y1915.720 A0.000 B0.000 C0.000 E=IC(0.626) 
N2250 X1806.625 Y1925.636 A0.000 B0.000 C0.000 E=IC(0.626) 
N2252 X1806.625 Y1935.551 A0.000 B0.000 C0.000 E=IC(0.626) 
N2254 X1806.625 Y1945.466 A0.000 B0.000 C0.000 E=IC(0.626) 
N2256 X1806.625 Y1955.381 A0.000 B0.000 C0.000 E=IC(0.626) 
N2258 X1806.625 Y1965.297 A0.000 B0.000 C0.000 E=IC(0.626) 
N2260 X1806.625 Y1975.212 A0.000 B0.000 C0.000 E=IC(0.626) 
N2262 X1806.625 Y1985.127 A0.000 B0.000 C0.000 E=IC(0.626) 
N2264 X1806.625 Y1995.000 A0.000 B0.000 C0.000 E=IC(0.623) 
N2266 G0 X1806.625 Y1995.042 A0.000 B0.000 C0.000 
N2268 X1806.625 Y2000.000 A0.000 B0.000 C0.000 
;-----------------------LAYER 2----------------------
N2270 G1 X1806.625 Y2000.000 Z15.240 A0.000 B0.000 C0.000 F1757.539 E=IC(0.320) 
N2272 X1806.625 Y2004.958 A0.000 B0.000 C0.000 E=IC(0.313) 
N2274 X1806.625 Y2014.873 A0.000 B0.000 C0.000 E=IC(0.626) 
N2276 X1806.625 Y2024.788 A0.000 B0.000 C0.000 E=IC(0.626) 
N2278 X1806.625 Y2034.703 A0.000 B0.000 C0.000 E=IC(0.626) 
N2280 X1806.625 Y2044.619 A0.000 B0.000 C0.000 E=IC(0.626) 
N2282 X1806.625 Y2054.534 A0.000 B0.000 C0.000 E=IC(0.626) 
N2284 X1806.625 Y2064.449 A0.000 B0.000 C0.000 E=IC(0.626) 
N2286 X1806.625 Y2074.365 A0.000 B0.000 C0.000 E=IC(0.626) 
N2288 X1806.625 Y2084.280 A0.000 B0.000 C0.000 E=IC(0.626) 
N2290 X1806.625 Y2094.195 A0.000 B0.000 C0.000 E=IC(0.626) 
N2292 X1806.625 Y2104.110 A0.000 B0.000 C0.000 E=IC(0.626) 
N2294 X1806.625 Y2114.026 A0.000 B0.000 C0.000 E=IC(0.626) 
N2296 X1806.625 Y2123.941 A0.000 B0.000 C0.000 E=IC(0.626) 
N2298 X1806.625 Y2133.856 A0.000 B0.000 C0.000 E=IC(0.626) 
N2300 X1806.625 Y2143.771 A0.000 B0.000 C0.000 E=IC(0.626) 
N2302 X1806.625 Y2153.687 A0.000 B0.000 C0.000 E=IC(0.626) 
N2304 X1806.625 Y2163.602 A0.000 B0.000 C0.000 E=IC(0.626) 
N2306 X1806.625 Y2173.517 A0.000 B0.000 C0.000 E=IC(0.626) 
N2308 X1806.625 Y2183.432 A0.000 B0.000 C0.000 E=IC(0.626) 
N2310 X1806.625 Y2193.348 A0.000 B0.000 C0.000 E=IC(0.626) 
N2312 X1806.625 Y2203.263 A0.000 B0.000 C0.000 E=IC(0.626) 
N2314 X1806.625 Y2213.178 A0.000 B0.000 C0.000 E=IC(0.626) 
N2316 X1806.625 Y2223.093 A0.000 B0.000 C0.000 E=IC(0.626) 
N2318 X1806.625 Y2233.009 A0.000 B0.000 C0.000 E=IC(0.626) 
N2320 X1806.625 Y2242.924 A0.000 B0.000 C0.000 E=IC(0.626) 
N2322 X1806.625 Y2252.839 A0.000 B0.000 C0.000 E=IC(0.626) 
N2324 X1806.625 Y2262.754 A0.000 B0.000 C0.000 E=IC(0.626) 
N2326 X1806.625 Y2272.670 A0.000 B0.000 C0.000 E=IC(0.626) 
N2328 X1806.625 Y2282.585 A0.000 B0.000 C0.000 E=IC(0.626) 
N2330 X1806.625 Y2292.500 A0.000 B0.000 C0.000 E=IC(0.626) 
N2332 X1798.038 Y2297.458 A0.000 B0.000 C0.000 E=IC(0.626) 
N2334 X1789.451 Y2302.415 A0.000 B0.000 C0.000 E=IC(0.626) 
N2336 X1780.864 Y2307.373 A0.000 B0.000 C0.000 E=IC(0.626) 
N2338 X1772.277 Y2312.331 A0.000 B0.000 C0.000 E=IC(0.626) 
N2340 X1763.691 Y2317.288 A0.000 B0.000 C0.000 E=IC(0.626) 
N2342 X1755.104 Y2322.246 A0.000 B0.000 C0.000 E=IC(0.626) 
N2344 X1746.517 Y2327.203 A0.000 B0.000 C0.000 E=IC(0.626) 
N2346 X1737.930 Y2332.161 A0.000 B0.000 C0.000 E=IC(0.626) 
N2348 X1729.343 Y2337.119 A0.000 B0.000 C0.000 E=IC(0.626) 
N2350 X1720.756 Y2342.076 A0.000 B0.000 C0.000 E=IC(0.626) 
N2352 X1712.169 Y2347.034 A0.000 B0.000 C0.000 E=IC(0.626) 
N2354 X1703.583 Y2351.992 A0.000 B0.000 C0.000 E=IC(0.626) 
N2356 X1694.996 Y2356.949 A0.000 B0.000 C0.000 E=IC(0.626) 
N2358 X1686.409 Y2361.907 A0.000 B0.000 C0.000 E=IC(0.626) 
N2360 X1679.968 Y2365.625 A0.000 B0.000 C0.000 E=IC(0.469) 
N2362 X1677.822 Y2366.865 A0.000 B0.000 C0.000 E=IC(0.156) 
N2364 X1669.235 Y2371.822 A0.000 B0.000 C0.000 E=IC(0.626) 
N2366 X1660.648 Y2376.780 A0.000 B0.000 C0.000 E=IC(0.626) 
N2368 X1652.061 Y2381.737 A0.000 B0.000 C0.000 E=IC(0.626) 
N2370 X1643.474 Y2386.695 A0.000 B0.000 C0.000 E=IC(0.626) 
N2372 X1634.888 Y2391.653 A0.000 B0.000 C0.000 E=IC(0.626) 
N2374 X1626.301 Y2396.610 A0.000 B0.000 C0.000 E=IC(0.626) 
N2376 X1617.714 Y2401.568 A0.000 B0.000 C0.000 E=IC(0.626) 
N2378 X1609.127 Y2406.525 A0.000 B0.000 C0.000 E=IC(0.626) 
N2380 X1600.540 Y2411.483 A0.000 B0.000 C0.000 E=IC(0.626) 
N2382 X1591.953 Y2416.441 A0.000 B0.000 C0.000 E=IC(0.626) 
N2384 X1583.366 Y2421.398 A0.000 B0.000 C0.000 E=IC(0.626) 
N2386 X1574.780 Y2426.356 A0.000 B0.000 C0.000 E=IC(0.626) 
N2388 X1566.193 Y2431.314 A0.000 B0.000 C0.000 E=IC(0.626) 
N2390 X1557.606 Y2436.271 A0.000 B0.000 C0.000 E=IC(0.626) 
N2392 X1549.019 Y2441.229 A0.000 B0.000 C0.000 E=IC(0.626) 
N2394 X1540.432 Y2446.187 A0.000 B0.000 C0.000 E=IC(0.626) 
N2396 X1531.845 Y2451.144 A0.000 B0.000 C0.000 E=IC(0.626) 
N2398 X1523.258 Y2456.102 A0.000 B0.000 C0.000 E=IC(0.626) 
N2400 X1514.672 Y2461.059 A0.000 B0.000 C0.000 E=IC(0.626) 
N2402 X1506.085 Y2466.017 A0.000 B0.000 C0.000 E=IC(0.626) 
N2404 X1497.498 Y2470.975 A0.000 B0.000 C0.000 E=IC(0.626) 
N2406 X1488.911 Y2475.932 A0.000 B0.000 C0.000 E=IC(0.626) 
N2408 X1480.324 Y2480.890 A0.000 B0.000 C0.000 E=IC(0.626) 
N2410 X1471.737 Y2485.847 A0.000 B0.000 C0.000 E=IC(0.626) 
N2412 X1463.150 Y2490.805 A0.000 B0.000 C0.000 E=IC(0.626) 
N2414 X1454.563 Y2495.763 A0.000 B0.000 C0.000 E=IC(0.626) 
N2416 X1445.977 Y2500.720 A0.000 B0.000 C0.000 E=IC(0.626) 
N2418 X1437.390 Y2505.678 A0.000 B0.000 C0.000 E=IC(0.626) 
N2420 X1428.803 Y2510.636 A0.000 B0.000 C0.000 E=IC(0.626) 
N2422 X1420.216 Y2515.593 A0.000 B0.000 C0.000 E=IC(0.626) 
N2424 X1411.629 Y2520.551 A0.000 B0.000 C0.000 E=IC(0.626) 
N2426 X1403.042 Y2525.509 A0.000 B0.000 C0.000 E=IC(0.626) 
N2428 X1394.455 Y2530.466 A0.000 B0.000 C0.000 E=IC(0.626) 
N2430 X1385.869 Y2535.424 A0.000 B0.000 C0.000 E=IC(0.626) 
N2432 X1377.282 Y2540.381 A0.000 B0.000 C0.000 E=IC(0.626) 
N2434 X1368.695 Y2545.339 A0.000 B0.000 C0.000 E=IC(0.626) 
N2436 X1360.108 Y2550.297 A0.000 B0.000 C0.000 E=IC(0.626) 
N2438 X1351.521 Y2555.254 A0.000 B0.000 C0.000 E=IC(0.626) 
N2440 X1342.934 Y2560.212 A0.000 B0.000 C0.000 E=IC(0.626) 
N2442 X1334.347 Y2565.169 A0.000 B0.000 C0.000 E=IC(0.626) 
N2444 X1325.760 Y2570.127 A0.000 B0.000 C0.000 E=IC(0.626) 
N2446 X1317.174 Y2575.085 A0.000 B0.000 C0.000 E=IC(0.626) 
N2448 X1308.587 Y2580.042 A0.000 B0.000 C0.000 E=IC(0.626) 
N2450 X1300.000 Y2585.000 A0.000 B0.000 C0.000 E=IC(0.626) 
N2452 X1291.413 Y2580.042 A0.000 B0.000 C0.000 E=IC(0.626) 
N2454 X1282.826 Y2575.085 A0.000 B0.000 C0.000 E=IC(0.626) 
N2456 X1274.239 Y2570.127 A0.000 B0.000 C0.000 E=IC(0.626) 
N2458 X1265.653 Y2565.169 A0.000 B0.000 C0.000 E=IC(0.626) 
N2460 X1257.066 Y2560.212 A0.000 B0.000 C0.000 E=IC(0.626) 
N2462 X1248.479 Y2555.254 A0.000 B0.000 C0.000 E=IC(0.626) 
N2464 X1239.892 Y2550.297 A0.000 B0.000 C0.000 E=IC(0.626) 
N2466 X1231.305 Y2545.339 A0.000 B0.000 C0.000 E=IC(0.626) 
N2468 X1222.718 Y2540.381 A0.000 B0.000 C0.000 E=IC(0.626) 
N2470 X1214.131 Y2535.424 A0.000 B0.000 C0.000 E=IC(0.626) 
N2472 X1205.544 Y2530.466 A0.000 B0.000 C0.000 E=IC(0.626) 
N2474 X1196.958 Y2525.509 A0.000 B0.000 C0.000 E=IC(0.626) 
N2476 X1188.371 Y2520.551 A0.000 B0.000 C0.000 E=IC(0.626) 
N2478 X1179.784 Y2515.593 A0.000 B0.000 C0.000 E=IC(0.626) 
N2480 X1171.197 Y2510.636 A0.000 B0.000 C0.000 E=IC(0.626) 
N2482 X1162.610 Y2505.678 A0.000 B0.000 C0.000 E=IC(0.626) 
N2484 X1154.023 Y2500.720 A0.000 B0.000 C0.000 E=IC(0.626) 
N2486 X1145.437 Y2495.763 A0.000 B0.000 C0.000 E=IC(0.626) 
N2488 X1136.850 Y2490.805 A0.000 B0.000 C0.000 E=IC(0.626) 
N2490 X1128.263 Y2485.847 A0.000 B0.000 C0.000 E=IC(0.626) 
N2492 X1119.676 Y2480.890 A0.000 B0.000 C0.000 E=IC(0.626) 
N2494 X1111.089 Y2475.932 A0.000 B0.000 C0.000 E=IC(0.626) 
N2496 X1102.502 Y2470.975 A0.000 B0.000 C0.000 E=IC(0.626) 
N2498 X1093.915 Y2466.017 A0.000 B0.000 C0.000 E=IC(0.626) 
N2500 X1085.328 Y2461.059 A0.000 B0.000 C0.000 E=IC(0.626) 
N2502 X1076.742 Y2456.102 A0.000 B0.000 C0.000 E=IC(0.626) 
N2504 X1068.155 Y2451.144 A0.000 B0.000 C0.000 E=IC(0.626) 
N2506 X1059.568 Y2446.186 A0.000 B0.000 C0.000 E=IC(0.626) 
N2508 X1050.981 Y2441.229 A0.000 B0.000 C0.000 E=IC(0.626) 
N2510 X1042.394 Y2436.271 A0.000 B0.000 C0.000 E=IC(0.626) 
N2512 X1033.807 Y2431.313 A0.000 B0.000 C0.000 E=IC(0.626) 
N2514 X1025.220 Y2426.356 A0.000 B0.000 C0.000 E=IC(0.626) 
N2516 X1016.634 Y2421.398 A0.000 B0.000 C0.000 E=IC(0.626) 
N2518 X1008.047 Y2416.441 A0.000 B0.000 C0.000 E=IC(0.626) 
N2520 X999.460 Y2411.483 A0.000 B0.000 C0.000 E=IC(0.626) 
N2522 X990.873 Y2406.525 A0.000 B0.000 C0.000 E=IC(0.626) 
N2524 X982.286 Y2401.568 A0.000 B0.000 C0.000 E=IC(0.626) 
N2526 X973.699 Y2396.610 A0.000 B0.000 C0.000 E=IC(0.626) 
N2528 X965.112 Y2391.653 A0.000 B0.000 C0.000 E=IC(0.626) 
N2530 X956.526 Y2386.695 A0.000 B0.000 C0.000 E=IC(0.626) 
N2532 X947.939 Y2381.737 A0.000 B0.000 C0.000 E=IC(0.626) 
N2534 X939.352 Y2376.780 A0.000 B0.000 C0.000 E=IC(0.626) 
N2536 X930.765 Y2371.822 A0.000 B0.000 C0.000 E=IC(0.626) 
N2538 X922.178 Y2366.864 A0.000 B0.000 C0.000 E=IC(0.626) 
N2540 X913.591 Y2361.907 A0.000 B0.000 C0.000 E=IC(0.626) 
N2542 X905.004 Y2356.949 A0.000 B0.000 C0.000 E=IC(0.626) 
N2544 X896.417 Y2351.991 A0.000 B0.000 C0.000 E=IC(0.626) 
N2546 X887.831 Y2347.034 A0.000 B0.000 C0.000 E=IC(0.626) 
N2548 X879.244 Y2342.076 A0.000 B0.000 C0.000 E=IC(0.626) 
N2550 X870.657 Y2337.119 A0.000 B0.000 C0.000 E=IC(0.626) 
N2552 X862.070 Y2332.161 A0.000 B0.000 C0.000 E=IC(0.626) 
N2554 X853.483 Y2327.203 A0.000 B0.000 C0.000 E=IC(0.626) 
N2556 X844.896 Y2322.246 A0.000 B0.000 C0.000 E=IC(0.626) 
N2558 X836.309 Y2317.288 A0.000 B0.000 C0.000 E=IC(0.626) 
N2560 X827.723 Y2312.330 A0.000 B0.000 C0.000 E=IC(0.626) 
N2562 X819.136 Y2307.373 A0.000 B0.000 C0.000 E=IC(0.626) 
N2564 X810.549 Y2302.415 A0.000 B0.000 C0.000 E=IC(0.626) 
N2566 X801.962 Y2297.458 A0.000 B0.000 C0.000 E=IC(0.626) 
N2568 X793.375 Y2292.500 A0.000 B0.000 C0.000 E=IC(0.626) 
N2570 X793.375 Y2282.585 A0.000 B0.000 C0.000 E=IC(0.626) 
N2572 X793.375 Y2272.669 A0.000 B0.000 C0.000 E=IC(0.626) 
N2574 X793.375 Y2262.754 A0.000 B0.000 C0.000 E=IC(0.626) 
N2576 X793.375 Y2252.839 A0.000 B0.000 C0.000 E=IC(0.626) 
N2578 X793.375 Y2242.924 A0.000 B0.000 C0.000 E=IC(0.626) 
N2580 X793.375 Y2233.008 A0.000 B0.000 C0.000 E=IC(0.626) 
N2582 X793.375 Y2223.093 A0.000 B0.000 C0.000 E=IC(0.626) 
N2584 X793.375 Y2213.178 A0.000 B0.000 C0.000 E=IC(0.626) 
N2586 X793.375 Y2203.263 A0.000 B0.000 C0.000 E=IC(0.626) 
N2588 X793.375 Y2193.347 A0.000 B0.000 C0.000 E=IC(0.626) 
N2590 X793.375 Y2183.432 A0.000 B0.000 C0.000 E=IC(0.626) 
N2592 X793.375 Y2173.517 A0.000 B0.000 C0.000 E=IC(0.626) 
N2594 X793.375 Y2163.602 A0.000 B0.000 C0.000 E=IC(0.626) 
N2596 X793.375 Y2153.686 A0.000 B0.000 C0.000 E=IC(0.626) 
N2598 X793.375 Y2143.771 A0.000 B0.000 C0.000 E=IC(0.626) 
N2600 X793.375 Y2133.856 A0.000 B0.000 C0.000 E=IC(0.626) 
N2602 X793.375 Y2123.941 A0.000 B0.000 C0.000 E=IC(0.626) 
N2604 X793.375 Y2114.025 A0.000 B0.000 C0.000 E=IC(0.626) 
N2606 X793.375 Y2104.110 A0.000 B0.000 C0.000 E=IC(0.626) 
N2608 X793.375 Y2094.195 A0.000 B0.000 C0.000 E=IC(0.626) 
N2610 X793.375 Y2084.280 A0.000 B0.000 C0.000 E=IC(0.626) 
N2612 X793.375 Y2074.364 A0.000 B0.000 C0.000 E=IC(0.626) 
N2614 X793.375 Y2064.449 A0.000 B0.000 C0.000 E=IC(0.626) 
N2616 X793.375 Y2054.534 A0.000 B0.000 C0.000 E=IC(0.626) 
N2618 X793.375 Y2044.619 A0.000 B0.000 C0.000 E=IC(0.626) 
N2620 X793.375 Y2034.703 A0.000 B0.000 C0.000 E=IC(0.626) 
N2622 X793.375 Y2024.788 A0.000 B0.000 C0.000 E=IC(0.626) 
N2624 X793.375 Y2014.873 A0.000 B0.000 C0.000 E=IC(0.626) 
N2626 X793.375 Y2004.958 A0.000 B0.000 C0.000 E=IC(0.626) 
N2628 X793.375 Y1995.042 A0.000 B0.000 C0.000 E=IC(0.626) 
N2630 X793.375 Y1985.127 A0.000 B0.000 C0.000 E=IC(0.626) 
N2632 X793.375 Y1975.212 A0.000 B0.000 C0.000 E=IC(0.626) 
N2634 X793.375 Y1965.297 A0.000 B0.000 C0.000 E=IC(0.626) 
N2636 X793.375 Y1955.381 A0.000 B0.000 C0.000 E=IC(0.626) 
N2638 X793.375 Y1945.466 A0.000 B0.000 C0.000 E=IC(0.626) 
N2640 X793.375 Y1935.551 A0.000 B0.000 C0.000 E=IC(0.626) 
N2642 X793.375 Y1925.635 A0.000 B0.000 C0.000 E=IC(0.626) 
N2644 X793.375 Y1915.720 A0.000 B0.000 C0.000 E=IC(0.626) 
N2646 X793.375 Y1905.805 A0.000 B0.000 C0.000 E=IC(0.626) 
N2648 X793.375 Y1895.890 A0.000 B0.000 C0.000 E=IC(0.626) 
N2650 X793.375 Y1885.975 A0.000 B0.000 C0.000 E=IC(0.626) 
N2652 X793.375 Y1876.059 A0.000 B0.000 C0.000 E=IC(0.626) 
N2654 X793.375 Y1866.144 A0.000 B0.000 C0.000 E=IC(0.626) 
N2656 X793.375 Y1856.229 A0.000 B0.000 C0.000 E=IC(0.626) 
N2658 X793.375 Y1846.313 A0.000 B0.000 C0.000 E=IC(0.626) 
N2660 X793.375 Y1836.398 A0.000 B0.000 C0.000 E=IC(0.626) 
N2662 X793.375 Y1826.483 A0.000 B0.000 C0.000 E=IC(0.626) 
N2664 X793.375 Y1816.568 A0.000 B0.000 C0.000 E=IC(0.626) 
N2666 X793.375 Y1806.653 A0.000 B0.000 C0.000 E=IC(0.626) 
N2668 X793.375 Y1796.737 A0.000 B0.000 C0.000 E=IC(0.626) 
N2670 X793.375 Y1786.822 A0.000 B0.000 C0.000 E=IC(0.626) 
N2672 X793.375 Y1776.907 A0.000 B0.000 C0.000 E=IC(0.626) 
N2674 X793.375 Y1766.991 A0.000 B0.000 C0.000 E=IC(0.626) 
N2676 X793.375 Y1757.076 A0.000 B0.000 C0.000 E=IC(0.626) 
N2678 X793.375 Y1747.161 A0.000 B0.000 C0.000 E=IC(0.626) 
N2680 X793.375 Y1737.246 A0.000 B0.000 C0.000 E=IC(0.626) 
N2682 X793.375 Y1727.331 A0.000 B0.000 C0.000 E=IC(0.626) 
N2684 X793.375 Y1717.415 A0.000 B0.000 C0.000 E=IC(0.626) 
N2686 X793.375 Y1707.500 A0.000 B0.000 C0.000 E=IC(0.626) 
N2688 X801.962 Y1702.542 A0.000 B0.000 C0.000 E=IC(0.626) 
N2690 X810.549 Y1697.585 A0.000 B0.000 C0.000 E=IC(0.626) 
N2692 X819.136 Y1692.627 A0.000 B0.000 C0.000 E=IC(0.626) 
N2694 X827.723 Y1687.669 A0.000 B0.000 C0.000 E=IC(0.626) 
N2696 X836.309 Y1682.712 A0.000 B0.000 C0.000 E=IC(0.626) 
N2698 X844.896 Y1677.754 A0.000 B0.000 C0.000 E=IC(0.626) 
N2700 X853.483 Y1672.797 A0.000 B0.000 C0.000 E=IC(0.626) 
N2702 X862.070 Y1667.839 A0.000 B0.000 C0.000 E=IC(0.626) 
N2704 X870.657 Y1662.881 A0.000 B0.000 C0.000 E=IC(0.626) 
N2706 X879.244 Y1657.924 A0.000 B0.000 C0.000 E=IC(0.626) 
N2708 X887.831 Y1652.966 A0.000 B0.000 C0.000 E=IC(0.626) 
N2710 X896.417 Y1648.009 A0.000 B0.000 C0.000 E=IC(0.626) 
N2712 X905.004 Y1643.051 A0.000 B0.000 C0.000 E=IC(0.626) 
N2714 X913.591 Y1638.093 A0.000 B0.000 C0.000 E=IC(0.626) 
N2716 X922.178 Y1633.135 A0.000 B0.000 C0.000 E=IC(0.626) 
N2718 X930.765 Y1628.178 A0.000 B0.000 C0.000 E=IC(0.626) 
N2720 X939.352 Y1623.220 A0.000 B0.000 C0.000 E=IC(0.626) 
N2722 X947.939 Y1618.263 A0.000 B0.000 C0.000 E=IC(0.626) 
N2724 X956.526 Y1613.305 A0.000 B0.000 C0.000 E=IC(0.626) 
N2726 X965.112 Y1608.347 A0.000 B0.000 C0.000 E=IC(0.626) 
N2728 X973.699 Y1603.390 A0.000 B0.000 C0.000 E=IC(0.626) 
N2730 X982.286 Y1598.432 A0.000 B0.000 C0.000 E=IC(0.626) 
N2732 X990.873 Y1593.475 A0.000 B0.000 C0.000 E=IC(0.626) 
N2734 X999.460 Y1588.517 A0.000 B0.000 C0.000 E=IC(0.626) 
N2736 X1008.047 Y1583.559 A0.000 B0.000 C0.000 E=IC(0.626) 
N2738 X1016.634 Y1578.602 A0.000 B0.000 C0.000 E=IC(0.626) 
N2740 X1025.220 Y1573.644 A0.000 B0.000 C0.000 E=IC(0.626) 
N2742 X1033.807 Y1568.687 A0.000 B0.000 C0.000 E=IC(0.626) 
N2744 X1042.394 Y1563.729 A0.000 B0.000 C0.000 E=IC(0.626) 
N2746 X1050.981 Y1558.771 A0.000 B0.000 C0.000 E=IC(0.626) 
N2748 X1059.568 Y1553.813 A0.000 B0.000 C0.000 E=IC(0.626) 
N2750 X1068.155 Y1548.856 A0.000 B0.000 C0.000 E=IC(0.626) 
N2752 X1076.742 Y1543.898 A0.000 B0.000 C0.000 E=IC(0.626) 
N2754 X1085.328 Y1538.941 A0.000 B0.000 C0.000 E=IC(0.626) 
N2756 X1093.915 Y1533.983 A0.000 B0.000 C0.000 E=IC(0.626) 
N2758 X1102.502 Y1529.025 A0.000 B0.000 C0.000 E=IC(0.626) 
N2760 X1111.089 Y1524.068 A0.000 B0.000 C0.000 E=IC(0.626) 
N2762 X1119.676 Y1519.110 A0.000 B0.000 C0.000 E=IC(0.626) 
N2764 X1128.263 Y1514.153 A0.000 B0.000 C0.000 E=IC(0.626) 
N2766 X1136.850 Y1509.195 A0.000 B0.000 C0.000 E=IC(0.626) 
N2768 X1145.437 Y1504.237 A0.000 B0.000 C0.000 E=IC(0.626) 
N2770 X1154.023 Y1499.280 A0.000 B0.000 C0.000 E=IC(0.626) 
N2772 X1162.610 Y1494.322 A0.000 B0.000 C0.000 E=IC(0.626) 
N2774 X1171.197 Y1489.364 A0.000 B0.000 C0.000 E=IC(0.626) 
N2776 X1179.784 Y1484.407 A0.000 B0.000 C0.000 E=IC(0.626) 
N2778 X1188.371 Y1479.449 A0.000 B0.000 C0.000 E=IC(0.626) 
N2780 X1196.958 Y1474.491 A0.000 B0.000 C0.000 E=IC(0.626) 
N2782 X1205.545 Y1469.534 A0.000 B0.000 C0.000 E=IC(0.626) 
N2784 X1214.131 Y1464.576 A0.000 B0.000 C0.000 E=IC(0.626) 
N2786 X1222.718 Y1459.619 A0.000 B0.000 C0.000 E=IC(0.626) 
N2788 X1231.305 Y1454.661 A0.000 B0.000 C0.000 E=IC(0.626) 
N2790 X1239.892 Y1449.703 A0.000 B0.000 C0.000 E=IC(0.626) 
N2792 X1248.479 Y1444.746 A0.000 B0.000 C0.000 E=IC(0.626) 
N2794 X1257.066 Y1439.788 A0.000 B0.000 C0.000 E=IC(0.626) 
N2796 X1265.653 Y1434.831 A0.000 B0.000 C0.000 E=IC(0.626) 
N2798 X1274.240 Y1429.873 A0.000 B0.000 C0.000 E=IC(0.626) 
N2800 X1282.826 Y1424.915 A0.000 B0.000 C0.000 E=IC(0.626) 
N2802 X1291.413 Y1419.958 A0.000 B0.000 C0.000 E=IC(0.626) 
N2804 X1300.000 Y1415.000 A0.000 B0.000 C0.000 E=IC(0.626) 
N2806 X1308.587 Y1419.958 A0.000 B0.000 C0.000 E=IC(0.626) 
N2808 X1317.174 Y1424.915 A0.000 B0.000 C0.000 E=IC(0.626) 
N2810 X1325.761 Y1429.873 A0.000 B0.000 C0.000 E=IC(0.626) 
N2812 X1334.347 Y1434.831 A0.000 B0.000 C0.000 E=IC(0.626) 
N2814 X1342.934 Y1439.788 A0.000 B0.000 C0.000 E=IC(0.626) 
N2816 X1351.521 Y1444.746 A0.000 B0.000 C0.000 E=IC(0.626) 
N2818 X1360.108 Y1449.703 A0.000 B0.000 C0.000 E=IC(0.626) 
N2820 X1368.695 Y1454.661 A0.000 B0.000 C0.000 E=IC(0.626) 
N2822 X1377.282 Y1459.619 A0.000 B0.000 C0.000 E=IC(0.626) 
N2824 X1385.869 Y1464.576 A0.000 B0.000 C0.000 E=IC(0.626) 
N2826 X1394.456 Y1469.534 A0.000 B0.000 C0.000 E=IC(0.626) 
N2828 X1403.042 Y1474.491 A0.000 B0.000 C0.000 E=IC(0.626) 
N2830 X1411.629 Y1479.449 A0.000 B0.000 C0.000 E=IC(0.626) 
N2832 X1420.216 Y1484.407 A0.000 B0.000 C0.000 E=IC(0.626) 
N2834 X1428.803 Y1489.365 A0.000 B0.000 C0.000 E=IC(0.626) 
N2836 X1437.390 Y1494.322 A0.000 B0.000 C0.000 E=IC(0.626) 
N2838 X1445.977 Y1499.280 A0.000 B0.000 C0.000 E=IC(0.626) 
N2840 X1454.563 Y1504.237 A0.000 B0.000 C0.000 E=IC(0.626) 
N2842 X1463.150 Y1509.195 A0.000 B0.000 C0.000 E=IC(0.626) 
N2844 X1471.737 Y1514.153 A0.000 B0.000 C0.000 E=IC(0.626) 
N2846 X1480.324 Y1519.110 A0.000 B0.000 C0.000 E=IC(0.626) 
N2848 X1488.911 Y1524.068 A0.000 B0.000 C0.000 E=IC(0.626) 
N2850 X1497.498 Y1529.025 A0.000 B0.000 C0.000 E=IC(0.626) 
N2852 X1506.085 Y1533.983 A0.000 B0.000 C0.000 E=IC(0.626) 
N2854 X1514.672 Y1538.941 A0.000 B0.000 C0.000 E=IC(0.626) 
N2856 X1523.258 Y1543.898 A0.000 B0.000 C0.000 E=IC(0.626) 
N2858 X1531.845 Y1548.856 A0.000 B0.000 C0.000 E=IC(0.626) 
N2860 X1540.432 Y1553.813 A0.000 B0.000 C0.000 E=IC(0.626) 
N2862 X1549.019 Y1558.771 A0.000 B0.000 C0.000 E=IC(0.626) 
N2864 X1557.606 Y1563.729 A0.000 B0.000 C0.000 E=IC(0.626) 
N2866 X1566.193 Y1568.687 A0.000 B0.000 C0.000 E=IC(0.626) 
N2868 X1574.780 Y1573.644 A0.000 B0.000 C0.000 E=IC(0.626) 
N2870 X1583.366 Y1578.602 A0.000 B0.000 C0.000 E=IC(0.626) 
N2872 X1591.953 Y1583.559 A0.000 B0.000 C0.000 E=IC(0.626) 
N2874 X1600.540 Y1588.517 A0.000 B0.000 C0.000 E=IC(0.626) 
N2876 X1609.127 Y1593.475 A0.000 B0.000 C0.000 E=IC(0.626) 
N2878 X1617.714 Y1598.432 A0.000 B0.000 C0.000 E=IC(0.626) 
N2880 X1626.301 Y1603.390 A0.000 B0.000 C0.000 E=IC(0.626) 
N2882 X1634.888 Y1608.347 A0.000 B0.000 C0.000 E=IC(0.626) 
N2884 X1643.474 Y1613.305 A0.000 B0.000 C0.000 E=IC(0.626) 
N2886 X1652.061 Y1618.263 A0.000 B0.000 C0.000 E=IC(0.626) 
N2888 X1660.648 Y1623.220 A0.000 B0.000 C0.000 E=IC(0.626) 
N2890 X1669.235 Y1628.178 A0.000 B0.000 C0.000 E=IC(0.626) 
N2892 X1677.822 Y1633.136 A0.000 B0.000 C0.000 E=IC(0.626) 
N2894 X1686.409 Y1638.093 A0.000 B0.000 C0.000 E=IC(0.626) 
N2896 X1694.996 Y1643.051 A0.000 B0.000 C0.000 E=IC(0.626) 
N2898 X1703.583 Y1648.009 A0.000 B0.000 C0.000 E=IC(0.626) 
N2900 X1712.169 Y1652.966 A0.000 B0.000 C0.000 E=IC(0.626) 
N2902 X1720.756 Y1657.924 A0.000 B0.000 C0.000 E=IC(0.626) 
N2904 X1729.343 Y1662.881 A0.000 B0.000 C0.000 E=IC(0.626) 
N2906 X1737.930 Y1667.839 A0.000 B0.000 C0.000 E=IC(0.626) 
N2908 X1746.517 Y1672.797 A0.000 B0.000 C0.000 E=IC(0.626) 
N2910 X1755.104 Y1677.754 A0.000 B0.000 C0.000 E=IC(0.626) 
N2912 X1763.691 Y1682.712 A0.000 B0.000 C0.000 E=IC(0.626) 
N2914 X1772.277 Y1687.669 A0.000 B0.000 C0.000 E=IC(0.626) 
N2916 X1780.864 Y1692.627 A0.000 B0.000 C0.000 E=IC(0.626) 
N2918 X1789.451 Y1697.585 A0.000 B0.000 C0.000 E=IC(0.626) 
N2920 X1798.038 Y1702.542 A0.000 B0.000 C0.000 E=IC(0.626) 
N2922 X1806.625 Y1707.500 A0.000 B0.000 C0.000 E=IC(0.626) 
N2924 X1806.625 Y1717.415 A0.000 B0.000 C0.000 E=IC(0.626) 
N2926 X1806.625 Y1727.331 A0.000 B0.000 C0.000 E=IC(0.626) 
N2928 X1806.625 Y1737.246 A0.000 B0.000 C0.000 E=IC(0.626) 
N2930 X1806.625 Y1747.161 A0.000 B0.000 C0.000 E=IC(0.626) 
N2932 X1806.625 Y1757.076 A0.000 B0.000 C0.000 E=IC(0.626) 
N2934 X1806.625 Y1766.991 A0.000 B0.000 C0.000 E=IC(0.626) 
N2936 X1806.625 Y1776.907 A0.000 B0.000 C0.000 E=IC(0.626) 
N2938 X1806.625 Y1786.822 A0.000 B0.000 C0.000 E=IC(0.626) 
N2940 X1806.625 Y1796.737 A0.000 B0.000 C0.000 E=IC(0.626) 
N2942 X1806.625 Y1806.653 A0.000 B0.000 C0.000 E=IC(0.626) 
N2944 X1806.625 Y1816.568 A0.000 B0.000 C0.000 E=IC(0.626) 
N2946 X1806.625 Y1826.483 A0.000 B0.000 C0.000 E=IC(0.626) 
N2948 X1806.625 Y1836.398 A0.000 B0.000 C0.000 E=IC(0.626) 
N2950 X1806.625 Y1846.313 A0.000 B0.000 C0.000 E=IC(0.626) 
N2952 X1806.625 Y1856.229 A0.000 B0.000 C0.000 E=IC(0.626) 
N2954 X1806.625 Y1866.144 A0.000 B0.000 C0.000 E=IC(0.626) 
N2956 X1806.625 Y1876.059 A0.000 B0.000 C0.000 E=IC(0.626) 
N2958 X1806.625 Y1885.975 A0.000 B0.000 C0.000 E=IC(0.626) 
N2960 X1806.625 Y1895.890 A0.000 B0.000 C0.000 E=IC(0.626) 
N2962 X1806.625 Y1905.805 A0.000 B0.000 C0.000 E=IC(0.626) 
N2964 X1806.625 Y1915.720 A0.000 B0.000 C0.000 E=IC(0.626) 
N2966 X1806.625 Y1925.636 A0.000 B0.000 C0.000 E=IC(0.626) 
N2968 X1806.625 Y1935.551 A0.000 B0.000 C0.000 E=IC(0.626) 
N2970 X1806.625 Y1945.466 A0.000 B0.000 C0.000 E=IC(0.626) 
N2972 X1806.625 Y1955.381 A0.000 B0.000 C0.000 E=IC(0.626) 
N2974 X1806.625 Y1965.297 A0.000 B0.000 C0.000 E=IC(0.626) 
N2976 X1806.625 Y1975.212 A0.000 B0.000 C0.000 E=IC(0.626) 
N2978 X1806.625 Y1985.127 A0.000 B0.000 C0.000 E=IC(0.626) 
N2980 X1806.625 Y1995.000 A0.000 B0.000 C0.000 E=IC(0.623) 
N2982 G0 X1806.625 Y1995.042 A0.000 B0.000 C0.000 
N2984 X1806.625 Y2000.000 A0.000 B0.000 C0.000 
;-----------------------LAYER 3----------------------
N2986 G1 X1806.625 Y2000.000 Z20.320 A0.000 B0.000 C0.000 E=IC(0.320) 
N2988 X1806.625 Y2004.958 A0.000 B0.000 C0.000 E=IC(0.313) 
N2990 X1806.625 Y2014.873 A0.000 B0.000 C0.000 E=IC(0.626) 
N2992 X1806.625 Y2024.788 A0.000 B0.000 C0.000 E=IC(0.626) 
N2994 X1806.625 Y2034.703 A0.000 B0.000 C0.000 E=IC(0.626) 
N2996 X1806.625 Y2044.619 A0.000 B0.000 C0.000 E=IC(0.626) 
N2998 X1806.625 Y2054.534 A0.000 B0.000 C0.000 E=IC(0.626) 
N3000 X1806.625 Y2064.449 A0.000 B0.000 C0.000 E=IC(0.626) 
N3002 X1806.625 Y2074.365 A0.000 B0.000 C0.000 E=IC(0.626) 
N3004 X1806.625 Y2084.280 A0.000 B0.000 C0.000 E=IC(0.626) 
N3006 X1806.625 Y2094.195 A0.000 B0.000 C0.000 E=IC(0.626) 
N3008 X1806.625 Y2104.110 A0.000 B0.000 C0.000 E=IC(0.626) 
N3010 X1806.625 Y2114.026 A0.000 B0.000 C0.000 E=IC(0.626) 
N3012 X1806.625 Y2123.941 A0.000 B0.000 C0.000 E=IC(0.626) 
N3014 X1806.625 Y2133.856 A0.000 B0.000 C0.000 E=IC(0.626) 
N3016 X1806.625 Y2143.771 A0.000 B0.000 C0.000 E=IC(0.626) 
N3018 X1806.625 Y2153.687 A0.000 B0.000 C0.000 E=IC(0.626) 
N3020 X1806.625 Y2163.602 A0.000 B0.000 C0.000 E=IC(0.626) 
N3022 X1806.625 Y2173.517 A0.000 B0.000 C0.000 E=IC(0.626) 
N3024 X1806.625 Y2183.432 A0.000 B0.000 C0.000 E=IC(0.626) 
N3026 X1806.625 Y2193.348 A0.000 B0.000 C0.000 E=IC(0.626) 
N3028 X1806.625 Y2203.263 A0.000 B0.000 C0.000 E=IC(0.626) 
N3030 X1806.625 Y2213.178 A0.000 B0.000 C0.000 E=IC(0.626) 
N3032 X1806.625 Y2223.093 A0.000 B0.000 C0.000 E=IC(0.626) 
N3034 X1806.625 Y2233.009 A0.000 B0.000 C0.000 E=IC(0.626) 
N3036 X1806.625 Y2242.924 A0.000 B0.000 C0.000 E=IC(0.626) 
N3038 X1806.625 Y2252.839 A0.000 B0.000 C0.000 E=IC(0.626) 
N3040 X1806.625 Y2262.754 A0.000 B0.000 C0.000 E=IC(0.626) 
N3042 X1806.625 Y2272.670 A0.000 B0.000 C0.000 E=IC(0.626) 
N3044 X1806.625 Y2282.585 A0.000 B0.000 C0.000 E=IC(0.626) 
N3046 X1806.625 Y2292.500 A0.000 B0.000 C0.000 E=IC(0.626) 
N3048 X1798.038 Y2297.458 A0.000 B0.000 C0.000 E=IC(0.626) 
N3050 X1789.451 Y2302.415 A0.000 B0.000 C0.000 E=IC(0.626) 
N3052 X1780.864 Y2307.373 A0.000 B0.000 C0.000 E=IC(0.626) 
N3054 X1772.277 Y2312.331 A0.000 B0.000 C0.000 E=IC(0.626) 
N3056 X1763.691 Y2317.288 A0.000 B0.000 C0.000 E=IC(0.626) 
N3058 X1755.104 Y2322.246 A0.000 B0.000 C0.000 E=IC(0.626) 
N3060 X1746.517 Y2327.203 A0.000 B0.000 C0.000 E=IC(0.626) 
N3062 X1737.930 Y2332.161 A0.000 B0.000 C0.000 E=IC(0.626) 
N3064 X1729.343 Y2337.119 A0.000 B0.000 C0.000 E=IC(0.626) 
N3066 X1720.756 Y2342.076 A0.000 B0.000 C0.000 E=IC(0.626) 
N3068 X1712.169 Y2347.034 A0.000 B0.000 C0.000 E=IC(0.626) 
N3070 X1703.583 Y2351.992 A0.000 B0.000 C0.000 E=IC(0.626) 
N3072 X1694.996 Y2356.949 A0.000 B0.000 C0.000 E=IC(0.626) 
N3074 X1686.409 Y2361.907 A0.000 B0.000 C0.000 E=IC(0.626) 
N3076 X1679.968 Y2365.625 A0.000 B0.000 C0.000 E=IC(0.469) 
N3078 X1677.822 Y2366.865 A0.000 B0.000 C0.000 E=IC(0.156) 
N3080 X1669.235 Y2371.822 A0.000 B0.000 C0.000 E=IC(0.626) 
N3082 X1660.648 Y2376.780 A0.000 B0.000 C0.000 E=IC(0.626) 
N3084 X1652.061 Y2381.737 A0.000 B0.000 C0.000 E=IC(0.626) 
N3086 X1643.474 Y2386.695 A0.000 B0.000 C0.000 E=IC(0.626) 
N3088 X1634.888 Y2391.653 A0.000 B0.000 C0.000 E=IC(0.626) 
N3090 X1626.301 Y2396.610 A0.000 B0.000 C0.000 E=IC(0.626) 
N3092 X1617.714 Y2401.568 A0.000 B0.000 C0.000 E=IC(0.626) 
N3094 X1609.127 Y2406.525 A0.000 B0.000 C0.000 E=IC(0.626) 
N3096 X1600.540 Y2411.483 A0.000 B0.000 C0.000 E=IC(0.626) 
N3098 X1591.953 Y2416.441 A0.000 B0.000 C0.000 E=IC(0.626) 
N3100 X1583.366 Y2421.398 A0.000 B0.000 C0.000 E=IC(0.626) 
N3102 X1574.780 Y2426.356 A0.000 B0.000 C0.000 E=IC(0.626) 
N3104 X1566.193 Y2431.314 A0.000 B0.000 C0.000 E=IC(0.626) 
N3106 X1557.606 Y2436.271 A0.000 B0.000 C0.000 E=IC(0.626) 
N3108 X1549.019 Y2441.229 A0.000 B0.000 C0.000 E=IC(0.626) 
N3110 X1540.432 Y2446.187 A0.000 B0.000 C0.000 E=IC(0.626) 
N3112 X1531.845 Y2451.144 A0.000 B0.000 C0.000 E=IC(0.626) 
N3114 X1523.258 Y2456.102 A0.000 B0.000 C0.000 E=IC(0.626) 
N3116 X1514.672 Y2461.059 A0.000 B0.000 C0.000 E=IC(0.626) 
N3118 X1506.085 Y2466.017 A0.000 B0.000 C0.000 E=IC(0.626) 
N3120 X1497.498 Y2470.975 A0.000 B0.000 C0.000 E=IC(0.626) 
N3122 X1488.911 Y2475.932 A0.000 B0.000 C0.000 E=IC(0.626) 
N3124 X1480.324 Y2480.890 A0.000 B0.000 C0.000 E=IC(0.626) 
N3126 X1471.737 Y2485.847 A0.000 B0.000 C0.000 E=IC(0.626) 
N3128 X1463.150 Y2490.805 A0.000 B0.000 C0.000 E=IC(0.626) 
N3130 X1454.563 Y2495.763 A0.000 B0.000 C0.000 E=IC(0.626) 
N3132 X1445.977 Y2500.720 A0.000 B0.000 C0.000 E=IC(0.626) 
N3134 X1437.390 Y2505.678 A0.000 B0.000 C0.000 E=IC(0.626) 
N3136 X1428.803 Y2510.636 A0.000 B0.000 C0.000 E=IC(0.626) 
N3138 X1420.216 Y2515.593 A0.000 B0.000 C0.000 E=IC(0.626) 
N3140 X1411.629 Y2520.551 A0.000 B0.000 C0.000 E=IC(0.626) 
N3142 X1403.042 Y2525.509 A0.000 B0.000 C0.000 E=IC(0.626) 
N3144 X1394.455 Y2530.466 A0.000 B0.000 C0.000 E=IC(0.626) 
N3146 X1385.869 Y2535.424 A0.000 B0.000 C0.000 E=IC(0.626) 
N3148 X1377.282 Y2540.381 A0.000 B0.000 C0.000 E=IC(0.626) 
N3150 X1368.695 Y2545.339 A0.000 B0.000 C0.000 E=IC(0.626) 
N3152 X1360.108 Y2550.297 A0.000 B0.000 C0.000 E=IC(0.626) 
N3154 X1351.521 Y2555.254 A0.000 B0.000 C0.000 E=IC(0.626) 
N3156 X1342.934 Y2560.212 A0.000 B0.000 C0.000 E=IC(0.626) 
N3158 X1334.347 Y2565.169 A0.000 B0.000 C0.000 E=IC(0.626) 
N3160 X1325.760 Y2570.127 A0.000 B0.000 C0.000 E=IC(0.626) 
N3162 X1317.174 Y2575.085 A0.000 B0.000 C0.000 E=IC(0.626) 
N3164 X1308.587 Y2580.042 A0.000 B0.000 C0.000 E=IC(0.626) 
N3166 X1300.000 Y2585.000 A0.000 B0.000 C0.000 E=IC(0.626) 
N3168 X1291.413 Y2580.042 A0.000 B0.000 C0.000 E=IC(0.626) 
N3170 X1282.826 Y2575.085 A0.000 B0.000 C0.000 E=IC(0.626) 
N3172 X1274.239 Y2570.127 A0.000 B0.000 C0.000 E=IC(0.626) 
N3174 X1265.653 Y2565.169 A0.000 B0.000 C0.000 E=IC(0.626) 
N3176 X1257.066 Y2560.212 A0.000 B0.000 C0.000 E=IC(0.626) 
N3178 X1248.479 Y2555.254 A0.000 B0.000 C0.000 E=IC(0.626) 
N3180 X1239.892 Y2550.297 A0.000 B0.000 C0.000 E=IC(0.626) 
N3182 X1231.305 Y2545.339 A0.000 B0.000 C0.000 E=IC(0.626) 
N3184 X1222.718 Y2540.381 A0.000 B0.000 C0.000 E=IC(0.626) 
N3186 X1214.131 Y2535.424 A0.000 B0.000 C0.000 E=IC(0.626) 
N3188 X1205.544 Y2530.466 A0.000 B0.000 C0.000 E=IC(0.626) 
N3190 X1196.958 Y2525.509 A0.000 B0.000 C0.000 E=IC(0.626) 
N3192 X1188.371 Y2520.551 A0.000 B0.000 C0.000 E=IC(0.626) 
N3194 X1179.784 Y2515.593 A0.000 B0.000 C0.000 E=IC(0.626) 
N3196 X1171.197 Y2510.636 A0.000 B0.000 C0.000 E=IC(0.626) 
N3198 X1162.610 Y2505.678 A0.000 B0.000 C0.000 E=IC(0.626) 
N3200 X1154.023 Y2500.720 A0.000 B0.000 C0.000 E=IC(0.626) 
N3202 X1145.437 Y2495.763 A0.000 B0.000 C0.000 E=IC(0.626) 
N3204 X1136.850 Y2490.805 A0.000 B0.000 C0.000 E=IC(0.626) 
N3206 X1128.263 Y2485.847 A0.000 B0.000 C0.000 E=IC(0.626) 
N3208 X1119.676 Y2480.890 A0.000 B0.000 C0.000 E=IC(0.626) 
N3210 X1111.089 Y2475.932 A0.000 B0.000 C0.000 E=IC(0.626) 
N3212 X1102.502 Y2470.975 A0.000 B0.000 C0.000 E=IC(0.626) 
N3214 X1093.915 Y2466.017 A0.000 B0.000 C0.000 E=IC(0.626) 
N3216 X1085.328 Y2461.059 A0.000 B0.000 C0.000 E=IC(0.626) 
N3218 X1076.742 Y2456.102 A0.000 B0.000 C0.000 E=IC(0.626) 
N3220 X1068.155 Y2451.144 A0.000 B0.000 C0.000 E=IC(0.626) 
N3222 X1059.568 Y2446.186 A0.000 B0.000 C0.000 E=IC(0.626) 
N3224 X1050.981 Y2441.229 A0.000 B0.000 C0.000 E=IC(0.626) 
N3226 X1042.394 Y2436.271 A0.000 B0.000 C0.000 E=IC(0.626) 
N3228 X1033.807 Y2431.313 A0.000 B0.000 C0.000 E=IC(0.626) 
N3230 X1025.220 Y2426.356 A0.000 B0.000 C0.000 E=IC(0.626) 
N3232 X1016.634 Y2421.398 A0.000 B0.000 C0.000 E=IC(0.626) 
N3234 X1008.047 Y2416.441 A0.000 B0.000 C0.000 E=IC(0.626) 
N3236 X999.460 Y2411.483 A0.000 B0.000 C0.000 E=IC(0.626) 
N3238 X990.873 Y2406.525 A0.000 B0.000 C0.000 E=IC(0.626) 
N3240 X982.286 Y2401.568 A0.000 B0.000 C0.000 E=IC(0.626) 
N3242 X973.699 Y2396.610 A0.000 B0.000 C0.000 E=IC(0.626) 
N3244 X965.112 Y2391.653 A0.000 B0.000 C0.000 E=IC(0.626) 
N3246 X956.526 Y2386.695 A0.000 B0.000 C0.000 E=IC(0.626) 
N3248 X947.939 Y2381.737 A0.000 B0.000 C0.000 E=IC(0.626) 
N3250 X939.352 Y2376.780 A0.000 B0.000 C0.000 E=IC(0.626) 
N3252 X930.765 Y2371.822 A0.000 B0.000 C0.000 E=IC(0.626) 
N3254 X922.178 Y2366.864 A0.000 B0.000 C0.000 E=IC(0.626) 
N3256 X913.591 Y2361.907 A0.000 B0.000 C0.000 E=IC(0.626) 
N3258 X905.004 Y2356.949 A0.000 B0.000 C0.000 E=IC(0.626) 
N3260 X896.417 Y2351.991 A0.000 B0.000 C0.000 E=IC(0.626) 
N3262 X887.831 Y2347.034 A0.000 B0.000 C0.000 E=IC(0.626) 
N3264 X879.244 Y2342.076 A0.000 B0.000 C0.000 E=IC(0.626) 
N3266 X870.657 Y2337.119 A0.000 B0.000 C0.000 E=IC(0.626) 
N3268 X862.070 Y2332.161 A0.000 B0.000 C0.000 E=IC(0.626) 
N3270 X853.483 Y2327.203 A0.000 B0.000 C0.000 E=IC(0.626) 
N3272 X844.896 Y2322.246 A0.000 B0.000 C0.000 E=IC(0.626) 
N3274 X836.309 Y2317.288 A0.000 B0.000 C0.000 E=IC(0.626) 
N3276 X827.723 Y2312.330 A0.000 B0.000 C0.000 E=IC(0.626) 
N3278 X819.136 Y2307.373 A0.000 B0.000 C0.000 E=IC(0.626) 
N3280 X810.549 Y2302.415 A0.000 B0.000 C0.000 E=IC(0.626) 
N3282 X801.962 Y2297.458 A0.000 B0.000 C0.000 E=IC(0.626) 
N3284 X793.375 Y2292.500 A0.000 B0.000 C0.000 E=IC(0.626) 
N3286 X793.375 Y2282.585 A0.000 B0.000 C0.000 E=IC(0.626) 
N3288 X793.375 Y2272.669 A0.000 B0.000 C0.000 E=IC(0.626) 
N3290 X793.375 Y2262.754 A0.000 B0.000 C0.000 E=IC(0.626) 
N3292 X793.375 Y2252.839 A0.000 B0.000 C0.000 E=IC(0.626) 
N3294 X793.375 Y2242.924 A0.000 B0.000 C0.000 E=IC(0.626) 
N3296 X793.375 Y2233.008 A0.000 B0.000 C0.000 E=IC(0.626) 
N3298 X793.375 Y2223.093 A0.000 B0.000 C0.000 E=IC(0.626) 
N3300 X793.375 Y2213.178 A0.000 B0.000 C0.000 E=IC(0.626) 
N3302 X793.375 Y2203.263 A0.000 B0.000 C0.000 E=IC(0.626) 
N3304 X793.375 Y2193.347 A0.000 B0.000 C0.000 E=IC(0.626) 
N3306 X793.375 Y2183.432 A0.000 B0.000 C0.000 E=IC(0.626) 
N3308 X793.375 Y2173.517 A0.000 B0.000 C0.000 E=IC(0.626) 
N3310 X793.375 Y2163.602 A0.000 B0.000 C0.000 E=IC(0.626) 
N3312 X793.375 Y2153.686 A0.000 B0.000 C0.000 E=IC(0.626) 
N3314 X793.375 Y2143.771 A0.000 B0.000 C0.000 E=IC(0.626) 
N3316 X793.375 Y2133.856 A0.000 B0.000 C0.000 E=IC(0.626) 
N3318 X793.375 Y2123.941 A0.000 B0.000 C0.000 E=IC(0.626) 
N3320 X793.375 Y2114.025 A0.000 B0.000 C0.000 E=IC(0.626) 
N3322 X793.375 Y2104.110 A0.000 B0.000 C0.000 E=IC(0.626) 
N3324 X793.375 Y2094.195 A0.000 B0.000 C0.000 E=IC(0.626) 
N3326 X793.375 Y2084.280 A0.000 B0.000 C0.000 E=IC(0.626) 
N3328 X793.375 Y2074.364 A0.000 B0.000 C0.000 E=IC(0.626) 
N3330 X793.375 Y2064.449 A0.000 B0.000 C0.000 E=IC(0.626) 
N3332 X793.375 Y2054.534 A0.000 B0.000 C0.000 E=IC(0.626) 
N3334 X793.375 Y2044.619 A0.000 B0.000 C0.000 E=IC(0.626) 
N3336 X793.375 Y2034.703 A0.000 B0.000 C0.000 E=IC(0.626) 
N3338 X793.375 Y2024.788 A0.000 B0.000 C0.000 E=IC(0.626) 
N3340 X793.375 Y2014.873 A0.000 B0.000 C0.000 E=IC(0.626) 
N3342 X793.375 Y2004.958 A0.000 B0.000 C0.000 E=IC(0.626) 
N3344 X793.375 Y1995.042 A0.000 B0.000 C0.000 E=IC(0.626) 
N3346 X793.375 Y1985.127 A0.000 B0.000 C0.000 E=IC(0.626) 
N3348 X793.375 Y1975.212 A0.000 B0.000 C0.000 E=IC(0.626) 
N3350 X793.375 Y1965.297 A0.000 B0.000 C0.000 E=IC(0.626) 
N3352 X793.375 Y1955.381 A0.000 B0.000 C0.000 E=IC(0.626) 
N3354 X793.375 Y1945.466 A0.000 B0.000 C0.000 E=IC(0.626) 
N3356 X793.375 Y1935.551 A0.000 B0.000 C0.000 E=IC(0.626) 
N3358 X793.375 Y1925.635 A0.000 B0.000 C0.000 E=IC(0.626) 
N3360 X793.375 Y1915.720 A0.000 B0.000 C0.000 E=IC(0.626) 
N3362 X793.375 Y1905.805 A0.000 B0.000 C0.000 E=IC(0.626) 
N3364 X793.375 Y1895.890 A0.000 B0.000 C0.000 E=IC(0.626) 
